(.../wes/Drive/eagle/ulp/pcb-gcode.ulp)
(Copyright 2005 - 2012 by John Johnson)
(See readme.txt for licensing terms.)
(This file generated from the board:)
(.../controller_mini/controller_mini.brd)
(Current profile is .../Drive/eagle/ulp/profiles/mach.pp  )
(This file generated 3/27/15 07:57)
(Settings from pcb-machine.h)
(  Tool Size)
(0.0070  )
(Z Axis Settings)
(  High     Up        Down     Drill)
(0.5000  	0.1000  	-0.0070 	-0.0320 )
(spindle on time = 3.0000)
(milling depth = -0.0100)
(text depth = -0.0050)
(tool change at 0.5000  0.6000  1.0000  )
(feed rate xy = F20    )
(feed rate z  = F10    )
(Settings from pcb-defaults.h)
(isolate min = 0.0010)
(isolate max = 0.0200)
(isolate step = 0.0050)
(Generated top outlines, )
(Unit of measure: inch)
(Inch Mode)
G20
(Absolute Coordinates)
G90
G00 X0.0000  Y0.0000  
M03
G04 P3.000000
G00 Z0.1000  
G00 X0.4451  Y1.1684  
G01 Z-0.0070 F10    
G01 X0.4299  Y1.1684  F20    
G01 X0.4191  Y1.1576  
G01 X0.4191  Y1.1424  
G01 X0.4299  Y1.1316  
G01 X0.4451  Y1.1316  
G01 X0.4531  Y1.1396  
G01 X0.4531  Y1.0828  
G01 X0.4460  Y1.0828  
G01 X0.4443  Y1.0822  
G01 X0.4430  Y1.0809  
G01 X0.4424  Y1.0792  
G01 X0.4424  Y1.0667  
G01 X0.4402  Y1.0689  
G01 X0.4397  Y1.0691  
G01 X0.4367  Y1.0703  
G01 X0.4333  Y1.0703  
G01 X0.4345  Y1.0731  
G01 X0.4345  Y1.1144  
G01 X0.4331  Y1.1179  
G01 X0.4095  Y1.1414  
G01 X0.4095  Y1.1711  
G01 X0.4304  Y1.1919  
G01 X0.4331  Y1.1946  
G01 X0.4345  Y1.1981  
G01 X0.4345  Y1.2344  
G01 X0.4366  Y1.2323  
G01 X0.4401  Y1.2308  
G01 X0.4430  Y1.2308  
G01 X0.4424  Y1.2292  
G01 X0.4424  Y1.1920  
G01 X0.4430  Y1.1904  
G01 X0.4443  Y1.1891  
G01 X0.4460  Y1.1884  
G01 X0.4531  Y1.1884  
G01 X0.4531  Y1.1604  
G01 X0.4451  Y1.1684  
G00 Z0.1000  
G00 X0.4737  Y1.1884  
G01 Z-0.0070 F10    
G01 X0.4721  Y1.1868  F20    
G01 X0.4721  Y1.1884  
G01 X0.4737  Y1.1884  
G00 Z0.1000  
G00 X0.4742  Y1.1650  
G01 Z-0.0070 F10    
G01 X0.4777  Y1.1635  F20    
G01 X0.4804  Y1.1635  
G01 X0.4798  Y1.1619  
G01 X0.4798  Y1.1247  
G01 X0.4804  Y1.1230  
G01 X0.4817  Y1.1218  
G01 X0.4834  Y1.1211  
G01 X0.4905  Y1.1211  
G01 X0.4905  Y1.0368  
G01 X0.4884  Y1.0390  
G01 X0.4849  Y1.0404  
G01 X0.4822  Y1.0404  
G01 X0.4828  Y1.0420  
G01 X0.4828  Y1.0792  
G01 X0.4822  Y1.0809  
G01 X0.4809  Y1.0822  
G01 X0.4792  Y1.0828  
G01 X0.4721  Y1.0828  
G01 X0.4721  Y1.1671  
G01 X0.4742  Y1.1650  
G00 Z0.1000  
G00 X0.1913  Y0.6540  
G01 Z-0.0070 F10    
G01 X0.1909  Y0.6532  F20    
G01 X0.1906  Y0.6540  
G01 X0.1906  Y0.6979  
G01 X0.1913  Y0.6962  
G01 X0.1913  Y0.6540  
G00 Z0.1000  
G00 X0.3991  Y0.9331  
G01 Z-0.0070 F10    
G01 X0.4026  Y0.9316  F20    
G01 X0.4064  Y0.9316  
G01 X0.4066  Y0.9317  
G01 X0.4066  Y0.9175  
G01 X0.3934  Y0.9175  
G01 X0.3956  Y0.9196  
G01 X0.3970  Y0.9231  
G01 X0.3970  Y0.9352  
G01 X0.3991  Y0.9331  
G00 Z0.1000  
G00 X0.1684  Y0.6674  
G01 Z-0.0070 F10    
G01 X0.1684  Y0.6826  F20    
G01 X0.1576  Y0.6934  
G01 X0.1424  Y0.6934  
G01 X0.1316  Y0.6826  
G01 X0.1316  Y0.6700  
G01 X0.1294  Y0.6679  
G01 X0.1280  Y0.6644  
G01 X0.1280  Y0.6356  
G01 X0.1294  Y0.6321  
G01 X0.1321  Y0.6294  
G01 X0.1431  Y0.6184  
G01 X0.1431  Y0.6135  
G01 X0.1441  Y0.6112  
G01 X0.1459  Y0.6094  
G01 X0.1468  Y0.6091  
G01 X0.1460  Y0.6087  
G01 X0.1422  Y0.6087  
G01 X0.1220  Y0.6289  
G01 X0.1220  Y0.7086  
G01 X0.1304  Y0.7169  
G01 X0.1331  Y0.7196  
G01 X0.1345  Y0.7231  
G01 X0.1345  Y0.7825  
G01 X0.1574  Y0.7825  
G01 X0.1590  Y0.7832  
G01 X0.1603  Y0.7845  
G01 X0.1610  Y0.7861  
G01 X0.1610  Y0.8391  
G01 X0.1603  Y0.8407  
G01 X0.1590  Y0.8420  
G01 X0.1574  Y0.8427  
G01 X0.0945  Y0.8427  
G01 X0.0964  Y0.8446  
G01 X0.0974  Y0.8471  
G01 X0.0978  Y0.8481  
G01 X0.0978  Y0.8519  
G01 X0.0964  Y0.8554  
G01 X0.0945  Y0.8573  
G01 X0.1574  Y0.8573  
G01 X0.1590  Y0.8580  
G01 X0.1603  Y0.8593  
G01 X0.1610  Y0.8609  
G01 X0.1610  Y0.9101  
G01 X0.1789  Y0.9280  
G01 X0.3269  Y0.9280  
G01 X0.3304  Y0.9294  
G01 X0.3325  Y0.9316  
G01 X0.3451  Y0.9316  
G01 X0.3559  Y0.9424  
G01 X0.3559  Y0.9548  
G01 X0.3561  Y0.9546  
G01 X0.3562  Y0.9545  
G01 X0.3597  Y0.9530  
G01 X0.3635  Y0.9530  
G01 X0.3670  Y0.9545  
G01 X0.3691  Y0.9566  
G01 X0.3691  Y0.9549  
G01 X0.3780  Y0.9460  
G01 X0.3780  Y0.9289  
G01 X0.3610  Y0.9119  
G01 X0.3610  Y0.9139  
G01 X0.3603  Y0.9155  
G01 X0.3590  Y0.9168  
G01 X0.3574  Y0.9175  
G01 X0.2926  Y0.9175  
G01 X0.2910  Y0.9168  
G01 X0.2897  Y0.9155  
G01 X0.2890  Y0.9139  
G01 X0.2890  Y0.8969  
G01 X0.2610  Y0.8969  
G01 X0.2610  Y0.9139  
G01 X0.2603  Y0.9155  
G01 X0.2590  Y0.9168  
G01 X0.2574  Y0.9175  
G01 X0.1926  Y0.9175  
G01 X0.1910  Y0.9168  
G01 X0.1897  Y0.9155  
G01 X0.1890  Y0.9139  
G01 X0.1890  Y0.8609  
G01 X0.1897  Y0.8593  
G01 X0.1910  Y0.8580  
G01 X0.1926  Y0.8573  
G01 X0.2574  Y0.8573  
G01 X0.2590  Y0.8580  
G01 X0.2603  Y0.8593  
G01 X0.2610  Y0.8609  
G01 X0.2610  Y0.8779  
G01 X0.2890  Y0.8779  
G01 X0.2890  Y0.8609  
G01 X0.2897  Y0.8593  
G01 X0.2910  Y0.8580  
G01 X0.2926  Y0.8573  
G01 X0.3574  Y0.8573  
G01 X0.3590  Y0.8580  
G01 X0.3603  Y0.8593  
G01 X0.3610  Y0.8609  
G01 X0.3610  Y0.8851  
G01 X0.3890  Y0.9131  
G01 X0.3890  Y0.8609  
G01 X0.3897  Y0.8593  
G01 X0.3910  Y0.8580  
G01 X0.3926  Y0.8573  
G01 X0.4555  Y0.8573  
G01 X0.4536  Y0.8554  
G01 X0.4522  Y0.8519  
G01 X0.4522  Y0.8481  
G01 X0.4526  Y0.8471  
G01 X0.4536  Y0.8446  
G01 X0.4555  Y0.8427  
G01 X0.3926  Y0.8427  
G01 X0.3910  Y0.8420  
G01 X0.3897  Y0.8407  
G01 X0.3890  Y0.8391  
G01 X0.3890  Y0.8024  
G01 X0.3461  Y0.7595  
G01 X0.2981  Y0.7595  
G01 X0.2946  Y0.7581  
G01 X0.2919  Y0.7554  
G01 X0.2124  Y0.6759  
G01 X0.2110  Y0.6724  
G01 X0.2110  Y0.6540  
G01 X0.2106  Y0.6532  
G01 X0.2103  Y0.6540  
G01 X0.2103  Y0.6969  
G01 X0.2959  Y0.7825  
G01 X0.3574  Y0.7825  
G01 X0.3590  Y0.7832  
G01 X0.3603  Y0.7845  
G01 X0.3610  Y0.7861  
G01 X0.3610  Y0.8391  
G01 X0.3603  Y0.8407  
G01 X0.3590  Y0.8420  
G01 X0.3574  Y0.8427  
G01 X0.2926  Y0.8427  
G01 X0.2910  Y0.8420  
G01 X0.2897  Y0.8407  
G01 X0.2890  Y0.8391  
G01 X0.2890  Y0.8024  
G01 X0.1919  Y0.7054  
G01 X0.1906  Y0.7021  
G01 X0.1906  Y0.7272  
G01 X0.2304  Y0.7669  
G01 X0.2331  Y0.7696  
G01 X0.2345  Y0.7731  
G01 X0.2345  Y0.7825  
G01 X0.2574  Y0.7825  
G01 X0.2590  Y0.7832  
G01 X0.2603  Y0.7845  
G01 X0.2610  Y0.7861  
G01 X0.2610  Y0.8391  
G01 X0.2603  Y0.8407  
G01 X0.2590  Y0.8420  
G01 X0.2574  Y0.8427  
G01 X0.1926  Y0.8427  
G01 X0.1910  Y0.8420  
G01 X0.1897  Y0.8407  
G01 X0.1890  Y0.8391  
G01 X0.1890  Y0.7861  
G01 X0.1897  Y0.7845  
G01 X0.1910  Y0.7832  
G01 X0.1926  Y0.7825  
G01 X0.2155  Y0.7825  
G01 X0.2155  Y0.7789  
G01 X0.1730  Y0.7365  
G01 X0.1716  Y0.7330  
G01 X0.1716  Y0.6540  
G01 X0.1707  Y0.6518  
G01 X0.1707  Y0.6293  
G01 X0.1591  Y0.6293  
G01 X0.1470  Y0.6414  
G01 X0.1470  Y0.6566  
G01 X0.1576  Y0.6566  
G01 X0.1684  Y0.6674  
G00 Z0.1000  
G00 X0.3191  Y0.9486  
G01 Z-0.0070 F10    
G01 X0.3191  Y0.9470  F20    
G01 X0.3175  Y0.9470  
G01 X0.3191  Y0.9486  
G00 Z0.1000  
G00 X0.4450  Y0.9175  
G01 Z-0.0070 F10    
G01 X0.4434  Y0.9175  F20    
G01 X0.4434  Y0.9191  
G01 X0.4450  Y0.9175  
G00 Z0.1000  
G00 X0.1460  Y0.5897  
G01 Z-0.0070 F10    
G01 X0.1468  Y0.5894  F20    
G01 X0.1459  Y0.5890  
G01 X0.1441  Y0.5872  
G01 X0.1431  Y0.5849  
G01 X0.1431  Y0.5752  
G01 X0.1418  Y0.5758  
G01 X0.1403  Y0.5764  
G01 X0.1365  Y0.5764  
G01 X0.1330  Y0.5750  
G01 X0.1309  Y0.5729  
G01 X0.1309  Y0.5826  
G01 X0.1201  Y0.5934  
G01 X0.1185  Y0.5934  
G01 X0.1206  Y0.5955  
G01 X0.1221  Y0.5990  
G01 X0.1221  Y0.6020  
G01 X0.1329  Y0.5912  
G01 X0.1364  Y0.5897  
G01 X0.1402  Y0.5897  
G01 X0.1460  Y0.5897  
G00 Z0.1000  
G00 X0.1139  Y0.7825  
G01 Z-0.0070 F10    
G01 X0.1155  Y0.7825  F20    
G01 X0.1155  Y0.7809  
G01 X0.1139  Y0.7825  
G00 Z0.1000  
G00 X0.2303  Y0.6590  
G01 Z-0.0070 F10    
G01 X0.2330  Y0.6563  F20    
G01 X0.2332  Y0.6562  
G01 X0.2325  Y0.6559  
G01 X0.2307  Y0.6541  
G01 X0.2303  Y0.6532  
G01 X0.2300  Y0.6540  
G01 X0.2300  Y0.6599  
G01 X0.2303  Y0.6590  
G00 Z0.1000  
G00 X2.0727  Y0.2471  
G01 Z-0.0070 F10    
G01 X2.0727  Y0.2455  F20    
G01 X2.0711  Y0.2455  
G01 X2.0727  Y0.2471  
G00 Z0.1000  
G00 X2.1234  Y0.2325  
G01 Z-0.0070 F10    
G01 X2.1223  Y0.2314  F20    
G01 X2.1223  Y0.2325  
G01 X2.1234  Y0.2325  
G00 Z0.1000  
G00 X1.4335  Y1.2270  
G01 Z-0.0070 F10    
G01 X1.4241  Y1.2270  F20    
G01 X1.4225  Y1.2263  
G01 X1.4225  Y1.2269  
G01 X1.4211  Y1.2304  
G01 X1.4184  Y1.2331  
G01 X1.4149  Y1.2345  
G01 X1.2508  Y1.2345  
G01 X1.2473  Y1.2331  
G01 X1.2451  Y1.2309  
G01 X1.2451  Y1.2405  
G01 X1.4335  Y1.2405  
G01 X1.4335  Y1.2270  
G00 Z0.1000  
G00 X1.6835  Y1.2270  
G01 Z-0.0070 F10    
G01 X1.6741  Y1.2270  F20    
G01 X1.6725  Y1.2263  
G01 X1.6725  Y1.2269  
G01 X1.6711  Y1.2304  
G01 X1.6684  Y1.2331  
G01 X1.6649  Y1.2345  
G01 X1.4851  Y1.2345  
G01 X1.4816  Y1.2331  
G01 X1.4789  Y1.2304  
G01 X1.4775  Y1.2269  
G01 X1.4775  Y1.2263  
G01 X1.4759  Y1.2270  
G01 X1.4665  Y1.2270  
G01 X1.4665  Y1.2405  
G01 X1.6835  Y1.2405  
G01 X1.6835  Y1.2270  
G00 Z0.1000  
G00 X1.2070  Y1.3516  
G01 Z-0.0070 F10    
G01 X1.2085  Y1.3500  F20    
G01 X1.2070  Y1.3500  
G01 X1.2070  Y1.3516  
G00 Z0.1000  
G00 X1.2325  Y1.3516  
G01 Z-0.0070 F10    
G01 X1.2325  Y1.3500  F20    
G01 X1.2309  Y1.3500  
G01 X1.2325  Y1.3516  
G00 Z0.1000  
G00 X1.2325  Y1.3234  
G01 Z-0.0070 F10    
G01 X1.2309  Y1.3250  F20    
G01 X1.2325  Y1.3250  
G01 X1.2325  Y1.3234  
G00 Z0.1000  
G00 X1.2070  Y1.3234  
G01 Z-0.0070 F10    
G01 X1.2070  Y1.3250  F20    
G01 X1.2085  Y1.3250  
G01 X1.2070  Y1.3234  
G00 Z0.1000  
G00 X1.3675  Y1.3234  
G01 Z-0.0070 F10    
G01 X1.3675  Y1.3250  F20    
G01 X1.3691  Y1.3250  
G01 X1.3675  Y1.3234  
G00 Z0.1000  
G00 X1.4043  Y1.3234  
G01 Z-0.0070 F10    
G01 X1.4027  Y1.3250  F20    
G01 X1.4043  Y1.3250  
G01 X1.4043  Y1.3234  
G00 Z0.1000  
G00 X1.4043  Y1.3516  
G01 Z-0.0070 F10    
G01 X1.4043  Y1.3500  F20    
G01 X1.4027  Y1.3500  
G01 X1.4043  Y1.3516  
G00 Z0.1000  
G00 X1.3675  Y1.3516  
G01 Z-0.0070 F10    
G01 X1.3691  Y1.3500  F20    
G01 X1.3675  Y1.3500  
G01 X1.3675  Y1.3516  
G00 Z0.1000  
G00 X1.2927  Y1.3680  
G01 Z-0.0070 F10    
G01 X1.2946  Y1.3661  F20    
G01 X1.2971  Y1.3651  
G01 X1.2981  Y1.3647  
G01 X1.3019  Y1.3647  
G01 X1.3054  Y1.3661  
G01 X1.3073  Y1.3680  
G01 X1.3073  Y1.3070  
G01 X1.3054  Y1.3089  
G01 X1.3019  Y1.3103  
G01 X1.2981  Y1.3103  
G01 X1.2971  Y1.3099  
G01 X1.2946  Y1.3089  
G01 X1.2927  Y1.3070  
G01 X1.2927  Y1.3680  
G00 Z0.1000  
G00 X2.6405  Y1.1711  
G01 Z-0.0070 F10    
G01 X2.6405  Y0.8289  F20    
G01 X2.6211  Y0.8095  
G01 X2.4856  Y0.8095  
G01 X2.4821  Y0.8081  
G01 X2.4196  Y0.7456  
G01 X2.4169  Y0.7429  
G01 X2.4155  Y0.7394  
G01 X2.4155  Y0.6985  
G01 X2.4111  Y0.6985  
G01 X2.4095  Y0.6978  
G01 X2.4082  Y0.6965  
G01 X2.4075  Y0.6949  
G01 X2.4075  Y0.6131  
G01 X2.4082  Y0.6115  
G01 X2.4095  Y0.6102  
G01 X2.4111  Y0.6095  
G01 X2.4389  Y0.6095  
G01 X2.4405  Y0.6102  
G01 X2.4405  Y0.6096  
G01 X2.4419  Y0.6061  
G01 X2.4441  Y0.6040  
G01 X2.4040  Y0.6040  
G01 X2.4040  Y0.7647  
G01 X2.4029  Y0.7689  
G01 X2.4007  Y0.7726  
G01 X2.3976  Y0.7757  
G01 X2.3540  Y0.8194  
G01 X2.3545  Y0.8221  
G01 X2.3545  Y0.9779  
G01 X2.3534  Y0.9836  
G01 X2.3511  Y0.9890  
G01 X2.3479  Y0.9938  
G01 X2.3045  Y1.0372  
G01 X2.3045  Y1.2405  
G01 X2.3270  Y1.2405  
G01 X2.3191  Y1.2326  
G01 X2.3191  Y1.2174  
G01 X2.3299  Y1.2066  
G01 X2.3451  Y1.2066  
G01 X2.3540  Y1.2155  
G01 X2.5961  Y1.2155  
G01 X2.6405  Y1.1711  
G00 Z0.1000  
G00 X2.4785  Y1.0904  
G01 Z-0.0070 F10    
G01 X2.4801  Y1.0911  F20    
G01 X2.4814  Y1.0923  
G01 X2.4821  Y1.0940  
G01 X2.4821  Y1.1312  
G01 X2.4814  Y1.1329  
G01 X2.4801  Y1.1341  
G01 X2.4785  Y1.1348  
G01 X2.4684  Y1.1348  
G01 X2.4684  Y1.1451  
G01 X2.4576  Y1.1559  
G01 X2.4424  Y1.1559  
G01 X2.4316  Y1.1451  
G01 X2.4316  Y1.1348  
G01 X2.4215  Y1.1348  
G01 X2.4199  Y1.1341  
G01 X2.4186  Y1.1329  
G01 X2.4179  Y1.1312  
G01 X2.4179  Y1.0940  
G01 X2.4186  Y1.0923  
G01 X2.4195  Y1.0915  
G01 X2.4195  Y0.9405  
G01 X2.4111  Y0.9405  
G01 X2.4095  Y0.9398  
G01 X2.4082  Y0.9385  
G01 X2.4075  Y0.9369  
G01 X2.4075  Y0.8551  
G01 X2.4082  Y0.8535  
G01 X2.4095  Y0.8522  
G01 X2.4111  Y0.8515  
G01 X2.4389  Y0.8515  
G01 X2.4405  Y0.8522  
G01 X2.4418  Y0.8535  
G01 X2.4425  Y0.8551  
G01 X2.4425  Y0.9369  
G01 X2.4418  Y0.9385  
G01 X2.4405  Y0.9398  
G01 X2.4389  Y0.9405  
G01 X2.4385  Y0.9405  
G01 X2.4385  Y1.0876  
G01 X2.4413  Y1.0904  
G01 X2.4785  Y1.0904  
G00 Z0.1000  
G00 X2.4215  Y1.1652  
G01 Z-0.0070 F10    
G01 X2.4785  Y1.1652  F20    
G01 X2.4801  Y1.1659  
G01 X2.4814  Y1.1671  
G01 X2.4821  Y1.1688  
G01 X2.4821  Y1.1780  
G01 X2.4836  Y1.1780  
G01 X2.4905  Y1.1711  
G01 X2.4905  Y1.0415  
G01 X2.4816  Y1.0326  
G01 X2.4816  Y1.0200  
G01 X2.4669  Y1.0054  
G01 X2.4655  Y1.0019  
G01 X2.4655  Y0.9405  
G01 X2.4611  Y0.9405  
G01 X2.4595  Y0.9398  
G01 X2.4582  Y0.9385  
G01 X2.4575  Y0.9369  
G01 X2.4575  Y0.8551  
G01 X2.4582  Y0.8535  
G01 X2.4595  Y0.8522  
G01 X2.4611  Y0.8515  
G01 X2.4889  Y0.8515  
G01 X2.4905  Y0.8522  
G01 X2.4918  Y0.8535  
G01 X2.4925  Y0.8551  
G01 X2.4925  Y0.9369  
G01 X2.4918  Y0.9385  
G01 X2.4905  Y0.9398  
G01 X2.4889  Y0.9405  
G01 X2.4845  Y0.9405  
G01 X2.4845  Y0.9961  
G01 X2.4950  Y1.0066  
G01 X2.5076  Y1.0066  
G01 X2.5184  Y1.0174  
G01 X2.5184  Y1.0326  
G01 X2.5095  Y1.0415  
G01 X2.5095  Y1.1769  
G01 X2.5081  Y1.1804  
G01 X2.5054  Y1.1831  
G01 X2.4955  Y1.1929  
G01 X2.4942  Y1.1942  
G01 X2.4929  Y1.1956  
G01 X2.4911  Y1.1963  
G01 X2.4894  Y1.1970  
G01 X2.4875  Y1.1970  
G01 X2.4856  Y1.1970  
G01 X2.4821  Y1.1970  
G01 X2.4821  Y1.2060  
G01 X2.4814  Y1.2077  
G01 X2.4801  Y1.2089  
G01 X2.4785  Y1.2096  
G01 X2.4215  Y1.2096  
G01 X2.4199  Y1.2089  
G01 X2.4186  Y1.2077  
G01 X2.4179  Y1.2060  
G01 X2.4179  Y1.1688  
G01 X2.4186  Y1.1671  
G01 X2.4199  Y1.1659  
G01 X2.4215  Y1.1652  
G00 Z0.1000  
G00 X2.5215  Y1.0904  
G01 Z-0.0070 F10    
G01 X2.5336  Y1.0904  F20    
G01 X2.5405  Y1.0835  
G01 X2.5405  Y1.0164  
G01 X2.5169  Y0.9929  
G01 X2.5155  Y0.9894  
G01 X2.5155  Y0.9405  
G01 X2.5111  Y0.9405  
G01 X2.5095  Y0.9398  
G01 X2.5082  Y0.9385  
G01 X2.5075  Y0.9369  
G01 X2.5075  Y0.8551  
G01 X2.5082  Y0.8535  
G01 X2.5095  Y0.8522  
G01 X2.5111  Y0.8515  
G01 X2.5389  Y0.8515  
G01 X2.5405  Y0.8522  
G01 X2.5418  Y0.8535  
G01 X2.5425  Y0.8551  
G01 X2.5425  Y0.9369  
G01 X2.5418  Y0.9385  
G01 X2.5405  Y0.9398  
G01 X2.5389  Y0.9405  
G01 X2.5345  Y0.9405  
G01 X2.5345  Y0.9836  
G01 X2.5554  Y1.0044  
G01 X2.5581  Y1.0071  
G01 X2.5595  Y1.0106  
G01 X2.5595  Y1.0835  
G01 X2.5664  Y1.0904  
G01 X2.5785  Y1.0904  
G01 X2.5801  Y1.0911  
G01 X2.5814  Y1.0923  
G01 X2.5821  Y1.0940  
G01 X2.5821  Y1.1312  
G01 X2.5814  Y1.1329  
G01 X2.5801  Y1.1341  
G01 X2.5785  Y1.1348  
G01 X2.5215  Y1.1348  
G01 X2.5199  Y1.1341  
G01 X2.5186  Y1.1329  
G01 X2.5179  Y1.1312  
G01 X2.5179  Y1.0940  
G01 X2.5186  Y1.0923  
G01 X2.5199  Y1.0911  
G01 X2.5215  Y1.0904  
G00 Z0.1000  
G00 X2.5215  Y1.1652  
G01 Z-0.0070 F10    
G01 X2.5785  Y1.1652  F20    
G01 X2.5801  Y1.1659  
G01 X2.5814  Y1.1671  
G01 X2.5821  Y1.1688  
G01 X2.5821  Y1.1780  
G01 X2.5836  Y1.1780  
G01 X2.6030  Y1.1586  
G01 X2.6030  Y1.0415  
G01 X2.5941  Y1.0326  
G01 X2.5941  Y1.0200  
G01 X2.5669  Y0.9929  
G01 X2.5655  Y0.9894  
G01 X2.5655  Y0.9405  
G01 X2.5611  Y0.9405  
G01 X2.5595  Y0.9398  
G01 X2.5582  Y0.9385  
G01 X2.5575  Y0.9369  
G01 X2.5575  Y0.8551  
G01 X2.5582  Y0.8535  
G01 X2.5595  Y0.8522  
G01 X2.5611  Y0.8515  
G01 X2.5889  Y0.8515  
G01 X2.5905  Y0.8522  
G01 X2.5918  Y0.8535  
G01 X2.5925  Y0.8551  
G01 X2.5925  Y0.9369  
G01 X2.5918  Y0.9385  
G01 X2.5905  Y0.9398  
G01 X2.5889  Y0.9405  
G01 X2.5845  Y0.9405  
G01 X2.5845  Y0.9836  
G01 X2.6075  Y1.0066  
G01 X2.6201  Y1.0066  
G01 X2.6309  Y1.0174  
G01 X2.6309  Y1.0326  
G01 X2.6220  Y1.0415  
G01 X2.6220  Y1.1644  
G01 X2.6206  Y1.1679  
G01 X2.5955  Y1.1929  
G01 X2.5942  Y1.1942  
G01 X2.5929  Y1.1956  
G01 X2.5911  Y1.1963  
G01 X2.5894  Y1.1970  
G01 X2.5875  Y1.1970  
G01 X2.5856  Y1.1970  
G01 X2.5821  Y1.1970  
G01 X2.5821  Y1.2060  
G01 X2.5814  Y1.2077  
G01 X2.5801  Y1.2089  
G01 X2.5785  Y1.2096  
G01 X2.5215  Y1.2096  
G01 X2.5199  Y1.2089  
G01 X2.5186  Y1.2077  
G01 X2.5179  Y1.2060  
G01 X2.5179  Y1.1688  
G01 X2.5186  Y1.1671  
G01 X2.5199  Y1.1659  
G01 X2.5215  Y1.1652  
G00 Z0.1000  
G00 X2.4361  Y0.6985  
G01 Z-0.0070 F10    
G01 X2.4345  Y0.6985  F20    
G01 X2.4345  Y0.7001  
G01 X2.4361  Y0.6985  
G00 Z0.1000  
G00 X0.4114  Y0.4234  
G01 Z-0.0070 F10    
G01 X0.4099  Y0.4250  F20    
G01 X0.4114  Y0.4250  
G01 X0.4114  Y0.4234  
G00 Z0.1000  
G00 X0.4114  Y0.4516  
G01 Z-0.0070 F10    
G01 X0.4114  Y0.4500  F20    
G01 X0.4099  Y0.4500  
G01 X0.4114  Y0.4516  
G00 Z0.1000  
G00 X0.3091  Y0.4468  
G01 Z-0.0070 F10    
G01 X0.3094  Y0.4459  F20    
G01 X0.3112  Y0.4441  
G01 X0.3135  Y0.4431  
G01 X0.3170  Y0.4431  
G01 X0.3253  Y0.4349  
G01 X0.3259  Y0.4327  
G01 X0.3275  Y0.4298  
G01 X0.3298  Y0.4275  
G01 X0.3327  Y0.4259  
G01 X0.3359  Y0.4250  
G01 X0.3381  Y0.4250  
G01 X0.3360  Y0.4229  
G01 X0.3345  Y0.4194  
G01 X0.3345  Y0.4164  
G01 X0.3087  Y0.4422  
G01 X0.3087  Y0.4460  
G01 X0.3091  Y0.4468  
G00 Z0.1000  
G00 X0.3240  Y0.3971  
G01 Z-0.0070 F10    
G01 X0.3205  Y0.3956  F20    
G01 X0.3184  Y0.3935  
G01 X0.3184  Y0.3951  
G01 X0.3076  Y0.4059  
G01 X0.2950  Y0.4059  
G01 X0.2890  Y0.4119  
G01 X0.2890  Y0.4460  
G01 X0.2894  Y0.4468  
G01 X0.2897  Y0.4460  
G01 X0.2897  Y0.4364  
G01 X0.2912  Y0.4329  
G01 X0.2938  Y0.4302  
G01 X0.3270  Y0.3971  
G01 X0.3240  Y0.3971  
G00 Z0.1000  
G00 X0.2679  Y0.4437  
G01 Z-0.0070 F10    
G01 X0.2672  Y0.4440  F20    
G01 X0.2675  Y0.4441  
G01 X0.2693  Y0.4459  
G01 X0.2697  Y0.4468  
G01 X0.2700  Y0.4460  
G01 X0.2700  Y0.4416  
G01 X0.2679  Y0.4437  
G00 Z0.1000  
G00 X1.6891  Y0.1607  
G01 Z-0.0070 F10    
G01 X1.6882  Y0.1603  F20    
G01 X1.6886  Y0.1610  
G01 X1.6896  Y0.1633  
G01 X1.6921  Y0.1607  
G01 X1.6891  Y0.1607  
G00 Z0.1000  
G00 X2.0633  Y0.0602  
G01 Z-0.0070 F10    
G01 X2.0517  Y0.0602  F20    
G01 X2.0410  Y0.0647  
G01 X2.0328  Y0.0729  
G01 X2.0283  Y0.0836  
G01 X2.0283  Y0.0952  
G01 X2.0328  Y0.1059  
G01 X2.0410  Y0.1141  
G01 X2.0517  Y0.1185  
G01 X2.0633  Y0.1185  
G01 X2.0740  Y0.1141  
G01 X2.0822  Y0.1059  
G01 X2.0866  Y0.0952  
G01 X2.0866  Y0.0836  
G01 X2.0822  Y0.0729  
G01 X2.0740  Y0.0647  
G01 X2.0633  Y0.0602  
G00 Z0.1000  
G00 X2.2483  Y0.0602  
G01 Z-0.0070 F10    
G01 X2.2367  Y0.0602  F20    
G01 X2.2260  Y0.0647  
G01 X2.2178  Y0.0729  
G01 X2.2134  Y0.0836  
G01 X2.2134  Y0.0952  
G01 X2.2178  Y0.1059  
G01 X2.2260  Y0.1141  
G01 X2.2367  Y0.1185  
G01 X2.2483  Y0.1185  
G01 X2.2590  Y0.1141  
G01 X2.2672  Y0.1059  
G01 X2.2717  Y0.0952  
G01 X2.2717  Y0.0836  
G01 X2.2672  Y0.0729  
G01 X2.2590  Y0.0647  
G01 X2.2483  Y0.0602  
G00 Z0.1000  
G00 X1.4153  Y0.4639  
G01 Z-0.0070 F10    
G01 X1.4137  Y0.4655  F20    
G01 X1.4153  Y0.4655  
G01 X1.4153  Y0.4639  
G00 Z0.1000  
G00 X1.3081  Y0.4205  
G01 Z-0.0070 F10    
G01 X1.3096  Y0.4240  F20    
G01 X1.3096  Y0.4270  
G01 X1.3196  Y0.4169  
G01 X1.3231  Y0.4155  
G01 X1.5269  Y0.4155  
G01 X1.5304  Y0.4169  
G01 X1.5315  Y0.4181  
G01 X1.5315  Y0.4170  
G01 X1.5315  Y0.4151  
G01 X1.5322  Y0.4136  
G01 X1.5330  Y0.4116  
G01 X1.5343  Y0.4103  
G01 X1.5351  Y0.4095  
G01 X1.3165  Y0.4095  
G01 X1.3076  Y0.4184  
G01 X1.3060  Y0.4184  
G01 X1.3081  Y0.4205  
G00 Z0.1000  
G00 X2.2288  Y0.5045  
G01 Z-0.0070 F10    
G01 X2.2272  Y0.5045  F20    
G01 X2.2272  Y0.5061  
G01 X2.2288  Y0.5045  
G00 Z0.1000  
G00 X2.2335  Y0.5405  
G01 Z-0.0070 F10    
G01 X2.2358  Y0.5381  F20    
G01 X2.2328  Y0.5381  
G01 X2.2293  Y0.5367  
G01 X2.2271  Y0.5345  
G01 X2.2258  Y0.5377  
G01 X2.2229  Y0.5405  
G01 X2.2335  Y0.5405  
G00 Z0.1000  
G00 X2.1798  Y0.5664  
G01 Z-0.0070 F10    
G01 X2.1825  Y0.5690  F20    
G01 X2.1839  Y0.5725  
G01 X2.1839  Y0.6236  
G01 X2.1848  Y0.6239  
G01 X2.1861  Y0.6252  
G01 X2.1868  Y0.6269  
G01 X2.1868  Y0.6562  
G01 X2.1861  Y0.6579  
G01 X2.1858  Y0.6582  
G01 X2.1884  Y0.6593  
G01 X2.1905  Y0.6614  
G01 X2.1905  Y0.5481  
G01 X2.1919  Y0.5446  
G01 X2.2082  Y0.5283  
G01 X2.2082  Y0.5045  
G01 X2.2043  Y0.5045  
G01 X2.2027  Y0.5038  
G01 X2.2014  Y0.5025  
G01 X2.2007  Y0.5009  
G01 X2.2007  Y0.4491  
G01 X2.2013  Y0.4477  
G01 X2.2000  Y0.4477  
G01 X2.1987  Y0.4477  
G01 X2.1993  Y0.4491  
G01 X2.1993  Y0.5009  
G01 X2.1986  Y0.5025  
G01 X2.1973  Y0.5038  
G01 X2.1957  Y0.5045  
G01 X2.1689  Y0.5045  
G01 X2.1672  Y0.5038  
G01 X2.1660  Y0.5025  
G01 X2.1653  Y0.5009  
G01 X2.1653  Y0.4845  
G01 X2.0979  Y0.4845  
G01 X2.1798  Y0.5664  
G00 Z0.1000  
G00 X2.2104  Y0.6909  
G01 Z-0.0070 F10    
G01 X2.2117  Y0.6921  F20    
G01 X2.2124  Y0.6938  
G01 X2.2124  Y0.7231  
G01 X2.2117  Y0.7247  
G01 X2.2139  Y0.7247  
G01 X2.2132  Y0.7231  
G01 X2.2132  Y0.6938  
G01 X2.2139  Y0.6921  
G01 X2.2142  Y0.6918  
G01 X2.2116  Y0.6907  
G01 X2.2095  Y0.6886  
G01 X2.2095  Y0.6905  
G01 X2.2104  Y0.6909  
G00 Z0.1000  
G00 X2.2116  Y0.6593  
G01 Z-0.0070 F10    
G01 X2.2142  Y0.6582  F20    
G01 X2.2139  Y0.6579  
G01 X2.2132  Y0.6562  
G01 X2.2132  Y0.6269  
G01 X2.2139  Y0.6252  
G01 X2.2142  Y0.6249  
G01 X2.2116  Y0.6238  
G01 X2.2095  Y0.6217  
G01 X2.2095  Y0.6614  
G01 X2.2116  Y0.6593  
G00 Z0.1000  
G00 X2.2111  Y0.5595  
G01 Z-0.0070 F10    
G01 X2.2095  Y0.5595  F20    
G01 X2.2095  Y0.5611  
G01 X2.2111  Y0.5595  
G00 Z0.1000  
G00 X2.1653  Y0.4639  
G01 Z-0.0070 F10    
G01 X2.1637  Y0.4655  F20    
G01 X2.1653  Y0.4655  
G01 X2.1653  Y0.4639  
G00 Z0.1000  
G00 X2.1741  Y1.2270  
G01 Z-0.0070 F10    
G01 X2.1725  Y1.2263  F20    
G01 X2.1725  Y1.2269  
G01 X2.1711  Y1.2304  
G01 X2.1684  Y1.2331  
G01 X2.1649  Y1.2345  
G01 X1.9851  Y1.2345  
G01 X1.9816  Y1.2331  
G01 X1.9789  Y1.2304  
G01 X1.9775  Y1.2269  
G01 X1.9775  Y1.2263  
G01 X1.9759  Y1.2270  
G01 X1.9665  Y1.2270  
G01 X1.9665  Y1.2405  
G01 X2.1835  Y1.2405  
G01 X2.1835  Y1.2270  
G01 X2.1741  Y1.2270  
G00 Z0.1000  
G00 X2.3069  Y0.7955  
G01 Z-0.0070 F10    
G01 X2.3085  Y0.7955  F20    
G01 X2.3085  Y0.7939  
G01 X2.3069  Y0.7955  
G00 Z0.1000  
G00 X2.3069  Y0.7520  
G01 Z-0.0070 F10    
G01 X2.3085  Y0.7536  F20    
G01 X2.3085  Y0.7520  
G01 X2.3069  Y0.7520  
G00 Z0.1000  
G00 X2.3431  Y0.7520  
G01 Z-0.0070 F10    
G01 X2.3415  Y0.7520  F20    
G01 X2.3415  Y0.7536  
G01 X2.3431  Y0.7520  
G00 Z0.1000  
G00 X1.9241  Y1.2270  
G01 Z-0.0070 F10    
G01 X1.9225  Y1.2263  F20    
G01 X1.9225  Y1.2269  
G01 X1.9211  Y1.2304  
G01 X1.9184  Y1.2331  
G01 X1.9149  Y1.2345  
G01 X1.7351  Y1.2345  
G01 X1.7316  Y1.2331  
G01 X1.7289  Y1.2304  
G01 X1.7275  Y1.2269  
G01 X1.7275  Y1.2263  
G01 X1.7259  Y1.2270  
G01 X1.7165  Y1.2270  
G01 X1.7165  Y1.2405  
G01 X1.9335  Y1.2405  
G01 X1.9335  Y1.2270  
G01 X1.9241  Y1.2270  
G00 Z0.1000  
G00 X1.9595  Y0.5611  
G01 Z-0.0070 F10    
G01 X1.9611  Y0.5595  F20    
G01 X1.9595  Y0.5595  
G01 X1.9595  Y0.5611  
G00 Z0.1000  
G00 X1.9788  Y0.5045  
G01 Z-0.0070 F10    
G01 X1.9772  Y0.5045  F20    
G01 X1.9772  Y0.5061  
G01 X1.9788  Y0.5045  
G00 Z0.1000  
G00 X1.9835  Y0.5405  
G01 Z-0.0070 F10    
G01 X1.9858  Y0.5381  F20    
G01 X1.9828  Y0.5381  
G01 X1.9793  Y0.5367  
G01 X1.9771  Y0.5345  
G01 X1.9758  Y0.5377  
G01 X1.9729  Y0.5405  
G01 X1.9835  Y0.5405  
G00 Z0.1000  
G00 X1.4185  Y0.3830  
G01 Z-0.0070 F10    
G01 X1.4185  Y0.3849  F20    
G01 X1.4185  Y0.3849  
G01 X1.4178  Y0.3864  
G01 X1.4170  Y0.3884  
G01 X1.4157  Y0.3897  
G01 X1.4149  Y0.3905  
G01 X1.7519  Y0.3905  
G01 X1.7554  Y0.3919  
G01 X1.7581  Y0.3946  
G01 X1.8289  Y0.4655  
G01 X1.9153  Y0.4655  
G01 X1.9153  Y0.4491  
G01 X1.9160  Y0.4475  
G01 X1.9172  Y0.4462  
G01 X1.9189  Y0.4455  
G01 X1.9457  Y0.4455  
G01 X1.9473  Y0.4462  
G01 X1.9486  Y0.4475  
G01 X1.9493  Y0.4491  
G01 X1.9493  Y0.5009  
G01 X1.9486  Y0.5025  
G01 X1.9473  Y0.5038  
G01 X1.9457  Y0.5045  
G01 X1.9189  Y0.5045  
G01 X1.9172  Y0.5038  
G01 X1.9160  Y0.5025  
G01 X1.9153  Y0.5009  
G01 X1.9153  Y0.4845  
G01 X1.8479  Y0.4845  
G01 X1.9325  Y0.5690  
G01 X1.9339  Y0.5725  
G01 X1.9339  Y0.6236  
G01 X1.9348  Y0.6239  
G01 X1.9361  Y0.6252  
G01 X1.9368  Y0.6269  
G01 X1.9368  Y0.6562  
G01 X1.9361  Y0.6579  
G01 X1.9358  Y0.6582  
G01 X1.9384  Y0.6593  
G01 X1.9405  Y0.6614  
G01 X1.9405  Y0.5481  
G01 X1.9419  Y0.5446  
G01 X1.9582  Y0.5283  
G01 X1.9582  Y0.5045  
G01 X1.9543  Y0.5045  
G01 X1.9527  Y0.5038  
G01 X1.9514  Y0.5025  
G01 X1.9507  Y0.5009  
G01 X1.9507  Y0.4491  
G01 X1.9514  Y0.4475  
G01 X1.9527  Y0.4462  
G01 X1.9543  Y0.4455  
G01 X1.9804  Y0.4455  
G01 X1.9797  Y0.4439  
G01 X1.9797  Y0.4401  
G01 X1.9809  Y0.4373  
G01 X1.9811  Y0.4366  
G01 X1.9833  Y0.4345  
G01 X1.8106  Y0.4345  
G01 X1.8071  Y0.4331  
G01 X1.7586  Y0.3845  
G01 X1.4231  Y0.3845  
G01 X1.4196  Y0.3831  
G01 X1.4185  Y0.3819  
G01 X1.4185  Y0.3830  
G00 Z0.1000  
G00 X1.9604  Y0.6909  
G01 Z-0.0070 F10    
G01 X1.9617  Y0.6921  F20    
G01 X1.9624  Y0.6938  
G01 X1.9624  Y0.7231  
G01 X1.9617  Y0.7247  
G01 X1.9639  Y0.7247  
G01 X1.9632  Y0.7231  
G01 X1.9632  Y0.6938  
G01 X1.9639  Y0.6921  
G01 X1.9642  Y0.6918  
G01 X1.9616  Y0.6907  
G01 X1.9595  Y0.6886  
G01 X1.9595  Y0.6905  
G01 X1.9604  Y0.6909  
G00 Z0.1000  
G00 X1.9616  Y0.6593  
G01 Z-0.0070 F10    
G01 X1.9642  Y0.6582  F20    
G01 X1.9639  Y0.6579  
G01 X1.9632  Y0.6562  
G01 X1.9632  Y0.6269  
G01 X1.9639  Y0.6252  
G01 X1.9642  Y0.6249  
G01 X1.9616  Y0.6238  
G01 X1.9595  Y0.6217  
G01 X1.9595  Y0.6614  
G01 X1.9616  Y0.6593  
G00 Z0.1000  
G00 X1.4595  Y0.5611  
G01 Z-0.0070 F10    
G01 X1.4611  Y0.5595  F20    
G01 X1.4595  Y0.5595  
G01 X1.4595  Y0.5611  
G00 Z0.1000  
G00 X1.4788  Y0.5045  
G01 Z-0.0070 F10    
G01 X1.4772  Y0.5045  F20    
G01 X1.4772  Y0.5061  
G01 X1.4788  Y0.5045  
G00 Z0.1000  
G00 X1.4835  Y0.5405  
G01 Z-0.0070 F10    
G01 X1.4858  Y0.5381  F20    
G01 X1.4828  Y0.5381  
G01 X1.4793  Y0.5367  
G01 X1.4771  Y0.5345  
G01 X1.4758  Y0.5377  
G01 X1.4729  Y0.5405  
G01 X1.4835  Y0.5405  
G00 Z0.1000  
G00 X1.4189  Y0.4366  
G01 Z-0.0070 F10    
G01 X1.4189  Y0.4366  F20    
G01 X1.4191  Y0.4372  
G01 X1.4203  Y0.4401  
G01 X1.4203  Y0.4439  
G01 X1.4196  Y0.4455  
G01 X1.4457  Y0.4455  
G01 X1.4473  Y0.4462  
G01 X1.4486  Y0.4475  
G01 X1.4493  Y0.4491  
G01 X1.4493  Y0.5009  
G01 X1.4486  Y0.5025  
G01 X1.4473  Y0.5038  
G01 X1.4457  Y0.5045  
G01 X1.4189  Y0.5045  
G01 X1.4172  Y0.5038  
G01 X1.4160  Y0.5025  
G01 X1.4153  Y0.5009  
G01 X1.4153  Y0.4845  
G01 X1.3789  Y0.4845  
G01 X1.3634  Y0.5000  
G01 X1.4325  Y0.5690  
G01 X1.4339  Y0.5725  
G01 X1.4339  Y0.6236  
G01 X1.4348  Y0.6239  
G01 X1.4361  Y0.6252  
G01 X1.4368  Y0.6269  
G01 X1.4368  Y0.6562  
G01 X1.4361  Y0.6579  
G01 X1.4358  Y0.6582  
G01 X1.4384  Y0.6593  
G01 X1.4405  Y0.6614  
G01 X1.4405  Y0.5481  
G01 X1.4419  Y0.5446  
G01 X1.4582  Y0.5283  
G01 X1.4582  Y0.5045  
G01 X1.4543  Y0.5045  
G01 X1.4527  Y0.5038  
G01 X1.4514  Y0.5025  
G01 X1.4507  Y0.5009  
G01 X1.4507  Y0.4491  
G01 X1.4514  Y0.4475  
G01 X1.4527  Y0.4462  
G01 X1.4543  Y0.4455  
G01 X1.4804  Y0.4455  
G01 X1.4797  Y0.4439  
G01 X1.4797  Y0.4401  
G01 X1.4809  Y0.4373  
G01 X1.4811  Y0.4366  
G01 X1.4833  Y0.4345  
G01 X1.4167  Y0.4345  
G01 X1.4189  Y0.4366  
G00 Z0.1000  
G00 X1.4604  Y0.6909  
G01 Z-0.0070 F10    
G01 X1.4617  Y0.6921  F20    
G01 X1.4624  Y0.6938  
G01 X1.4624  Y0.7231  
G01 X1.4617  Y0.7247  
G01 X1.4639  Y0.7247  
G01 X1.4632  Y0.7231  
G01 X1.4632  Y0.6938  
G01 X1.4639  Y0.6921  
G01 X1.4642  Y0.6918  
G01 X1.4616  Y0.6907  
G01 X1.4595  Y0.6886  
G01 X1.4595  Y0.6905  
G01 X1.4604  Y0.6909  
G00 Z0.1000  
G00 X1.4616  Y0.6593  
G01 Z-0.0070 F10    
G01 X1.4642  Y0.6582  F20    
G01 X1.4639  Y0.6579  
G01 X1.4632  Y0.6562  
G01 X1.4632  Y0.6269  
G01 X1.4639  Y0.6252  
G01 X1.4642  Y0.6249  
G01 X1.4616  Y0.6238  
G01 X1.4595  Y0.6217  
G01 X1.4595  Y0.6614  
G01 X1.4616  Y0.6593  
G00 Z0.1000  
G00 X1.6653  Y0.4639  
G01 Z-0.0070 F10    
G01 X1.6637  Y0.4655  F20    
G01 X1.6653  Y0.4655  
G01 X1.6653  Y0.4639  
G00 Z0.1000  
G00 X1.7095  Y0.5611  
G01 Z-0.0070 F10    
G01 X1.7111  Y0.5595  F20    
G01 X1.7095  Y0.5595  
G01 X1.7095  Y0.5611  
G00 Z0.1000  
G00 X1.7288  Y0.5045  
G01 Z-0.0070 F10    
G01 X1.7272  Y0.5045  F20    
G01 X1.7272  Y0.5061  
G01 X1.7288  Y0.5045  
G00 Z0.1000  
G00 X1.7335  Y0.5405  
G01 Z-0.0070 F10    
G01 X1.7358  Y0.5381  F20    
G01 X1.7328  Y0.5381  
G01 X1.7293  Y0.5367  
G01 X1.7271  Y0.5345  
G01 X1.7258  Y0.5377  
G01 X1.7229  Y0.5405  
G01 X1.7335  Y0.5405  
G00 Z0.1000  
G00 X1.6839  Y0.6236  
G01 Z-0.0070 F10    
G01 X1.6848  Y0.6239  F20    
G01 X1.6861  Y0.6252  
G01 X1.6868  Y0.6269  
G01 X1.6868  Y0.6562  
G01 X1.6861  Y0.6579  
G01 X1.6858  Y0.6582  
G01 X1.6884  Y0.6593  
G01 X1.6905  Y0.6614  
G01 X1.6905  Y0.5481  
G01 X1.6919  Y0.5446  
G01 X1.7082  Y0.5283  
G01 X1.7082  Y0.5045  
G01 X1.7043  Y0.5045  
G01 X1.7027  Y0.5038  
G01 X1.7014  Y0.5025  
G01 X1.7007  Y0.5009  
G01 X1.7007  Y0.4491  
G01 X1.7013  Y0.4477  
G01 X1.7000  Y0.4477  
G01 X1.6987  Y0.4477  
G01 X1.6993  Y0.4491  
G01 X1.6993  Y0.5009  
G01 X1.6986  Y0.5025  
G01 X1.6973  Y0.5038  
G01 X1.6957  Y0.5045  
G01 X1.6689  Y0.5045  
G01 X1.6672  Y0.5038  
G01 X1.6660  Y0.5025  
G01 X1.6653  Y0.5009  
G01 X1.6653  Y0.4845  
G01 X1.5979  Y0.4845  
G01 X1.6825  Y0.5690  
G01 X1.6839  Y0.5725  
G01 X1.6839  Y0.5763  
G01 X1.6839  Y0.6236  
G00 Z0.1000  
G00 X1.7104  Y0.6909  
G01 Z-0.0070 F10    
G01 X1.7117  Y0.6921  F20    
G01 X1.7124  Y0.6938  
G01 X1.7124  Y0.7231  
G01 X1.7117  Y0.7247  
G01 X1.7139  Y0.7247  
G01 X1.7132  Y0.7231  
G01 X1.7132  Y0.6938  
G01 X1.7139  Y0.6921  
G01 X1.7142  Y0.6918  
G01 X1.7116  Y0.6907  
G01 X1.7095  Y0.6886  
G01 X1.7095  Y0.6905  
G01 X1.7104  Y0.6909  
G00 Z0.1000  
G00 X1.7116  Y0.6593  
G01 Z-0.0070 F10    
G01 X1.7142  Y0.6582  F20    
G01 X1.7139  Y0.6579  
G01 X1.7132  Y0.6562  
G01 X1.7132  Y0.6269  
G01 X1.7139  Y0.6252  
G01 X1.7142  Y0.6249  
G01 X1.7116  Y0.6238  
G01 X1.7095  Y0.6217  
G01 X1.7095  Y0.6614  
G01 X1.7116  Y0.6593  
G00 Z0.1000  
G00 X0.5613  Y0.3322  
G01 Z-0.0070 F10    
G01 X0.5607  Y0.3325  F20    
G01 X0.5595  Y0.3325  
G01 X0.5595  Y0.3340  
G01 X0.5613  Y0.3322  
G00 Z0.1000  
G00 X0.1889  Y1.0424  
G01 Z-0.0070 F10    
G01 X0.1905  Y1.0424  F20    
G01 X0.1905  Y1.0408  
G01 X0.1889  Y1.0424  
G00 Z0.1000  
G00 X0.2116  Y1.1485  
G01 Z-0.0070 F10    
G01 X0.2132  Y1.1469  F20    
G01 X0.2116  Y1.1469  
G01 X0.2116  Y1.1485  
G00 Z0.1000  
G00 X0.2116  Y1.0515  
G01 Z-0.0070 F10    
G01 X0.2116  Y1.0531  F20    
G01 X0.2132  Y1.0531  
G01 X0.2116  Y1.0515  
G00 Z0.1000  
G00 X0.4816  Y1.3972  
G01 Z-0.0070 F10    
G01 X0.4827  Y1.3961  F20    
G01 X0.4816  Y1.3950  
G01 X0.4816  Y1.3972  
G00 Z0.1000  
G00 X0.3580  Y1.2328  
G01 Z-0.0070 F10    
G01 X0.3208  Y1.2328  F20    
G01 X0.3191  Y1.2322  
G01 X0.3178  Y1.2309  
G01 X0.3172  Y1.2292  
G01 X0.3172  Y1.2221  
G01 X0.2116  Y1.2221  
G01 X0.2116  Y1.2292  
G01 X0.2109  Y1.2309  
G01 X0.2096  Y1.2322  
G01 X0.2080  Y1.2328  
G01 X0.1717  Y1.2328  
G01 X0.1718  Y1.2332  
G01 X0.1724  Y1.2347  
G01 X0.1724  Y1.2385  
G01 X0.1718  Y1.2399  
G01 X0.1710  Y1.2420  
G01 X0.1689  Y1.2441  
G01 X0.1701  Y1.2441  
G01 X0.1809  Y1.2549  
G01 X0.1809  Y1.2672  
G01 X0.2080  Y1.2672  
G01 X0.2096  Y1.2678  
G01 X0.2109  Y1.2691  
G01 X0.2116  Y1.2708  
G01 X0.2116  Y1.2779  
G01 X0.3172  Y1.2779  
G01 X0.3172  Y1.2708  
G01 X0.3178  Y1.2691  
G01 X0.3191  Y1.2678  
G01 X0.3208  Y1.2672  
G01 X0.3580  Y1.2672  
G01 X0.3596  Y1.2678  
G01 X0.3596  Y1.2651  
G01 X0.3610  Y1.2616  
G01 X0.3632  Y1.2595  
G01 X0.2789  Y1.2595  
G01 X0.2789  Y1.2666  
G01 X0.2782  Y1.2683  
G01 X0.2770  Y1.2696  
G01 X0.2753  Y1.2702  
G01 X0.2381  Y1.2702  
G01 X0.2364  Y1.2696  
G01 X0.2352  Y1.2683  
G01 X0.2345  Y1.2666  
G01 X0.2345  Y1.2334  
G01 X0.2352  Y1.2317  
G01 X0.2364  Y1.2304  
G01 X0.2381  Y1.2298  
G01 X0.2753  Y1.2298  
G01 X0.2770  Y1.2304  
G01 X0.2782  Y1.2317  
G01 X0.2789  Y1.2334  
G01 X0.2789  Y1.2405  
G01 X0.3655  Y1.2405  
G01 X0.3655  Y1.1095  
G01 X0.2789  Y1.1095  
G01 X0.2789  Y1.1166  
G01 X0.2782  Y1.1183  
G01 X0.2770  Y1.1196  
G01 X0.2753  Y1.1202  
G01 X0.2381  Y1.1202  
G01 X0.2364  Y1.1196  
G01 X0.2352  Y1.1183  
G01 X0.2345  Y1.1166  
G01 X0.2345  Y1.0834  
G01 X0.2352  Y1.0817  
G01 X0.2364  Y1.0804  
G01 X0.2381  Y1.0798  
G01 X0.2753  Y1.0798  
G01 X0.2770  Y1.0804  
G01 X0.2782  Y1.0817  
G01 X0.2789  Y1.0834  
G01 X0.2789  Y1.0905  
G01 X0.3710  Y1.0905  
G01 X0.3799  Y1.0816  
G01 X0.3951  Y1.0816  
G01 X0.4059  Y1.0924  
G01 X0.4059  Y1.1076  
G01 X0.3951  Y1.1184  
G01 X0.3845  Y1.1184  
G01 X0.3845  Y1.1851  
G01 X0.3866  Y1.1830  
G01 X0.3901  Y1.1815  
G01 X0.3931  Y1.1815  
G01 X0.3919  Y1.1804  
G01 X0.3905  Y1.1769  
G01 X0.3905  Y1.1356  
G01 X0.3919  Y1.1321  
G01 X0.3946  Y1.1294  
G01 X0.4155  Y1.1086  
G01 X0.4155  Y1.0789  
G01 X0.3711  Y1.0345  
G01 X0.2665  Y1.0345  
G01 X0.2576  Y1.0434  
G01 X0.2433  Y1.0434  
G01 X0.2434  Y1.0437  
G01 X0.2435  Y1.0475  
G01 X0.2420  Y1.0510  
G01 X0.2399  Y1.0531  
G01 X0.3172  Y1.0531  
G01 X0.3172  Y1.0460  
G01 X0.3178  Y1.0443  
G01 X0.3191  Y1.0430  
G01 X0.3208  Y1.0424  
G01 X0.3580  Y1.0424  
G01 X0.3596  Y1.0430  
G01 X0.3609  Y1.0443  
G01 X0.3616  Y1.0460  
G01 X0.3616  Y1.0792  
G01 X0.3609  Y1.0809  
G01 X0.3596  Y1.0822  
G01 X0.3580  Y1.0828  
G01 X0.3208  Y1.0828  
G01 X0.3191  Y1.0822  
G01 X0.3178  Y1.0809  
G01 X0.3172  Y1.0792  
G01 X0.3172  Y1.0721  
G01 X0.2116  Y1.0721  
G01 X0.2116  Y1.0792  
G01 X0.2109  Y1.0809  
G01 X0.2096  Y1.0822  
G01 X0.2080  Y1.0828  
G01 X0.1708  Y1.0828  
G01 X0.1691  Y1.0822  
G01 X0.1678  Y1.0809  
G01 X0.1672  Y1.0792  
G01 X0.1672  Y1.0464  
G01 X0.1595  Y1.0540  
G01 X0.1595  Y1.0961  
G01 X0.1806  Y1.1172  
G01 X0.2080  Y1.1172  
G01 X0.2096  Y1.1178  
G01 X0.2109  Y1.1191  
G01 X0.2116  Y1.1208  
G01 X0.2116  Y1.1279  
G01 X0.3172  Y1.1279  
G01 X0.3172  Y1.1208  
G01 X0.3178  Y1.1191  
G01 X0.3191  Y1.1178  
G01 X0.3208  Y1.1172  
G01 X0.3580  Y1.1172  
G01 X0.3596  Y1.1178  
G01 X0.3609  Y1.1191  
G01 X0.3616  Y1.1208  
G01 X0.3616  Y1.1540  
G01 X0.3609  Y1.1557  
G01 X0.3596  Y1.1570  
G01 X0.3580  Y1.1576  
G01 X0.3208  Y1.1576  
G01 X0.3191  Y1.1570  
G01 X0.3178  Y1.1557  
G01 X0.3172  Y1.1540  
G01 X0.3172  Y1.1469  
G01 X0.2649  Y1.1469  
G01 X0.2670  Y1.1490  
G01 X0.2685  Y1.1525  
G01 X0.2685  Y1.1563  
G01 X0.2683  Y1.1566  
G01 X0.2826  Y1.1566  
G01 X0.2934  Y1.1674  
G01 X0.2934  Y1.1826  
G01 X0.2845  Y1.1915  
G01 X0.2845  Y1.2031  
G01 X0.3172  Y1.2031  
G01 X0.3172  Y1.1960  
G01 X0.3178  Y1.1943  
G01 X0.3191  Y1.1930  
G01 X0.3208  Y1.1924  
G01 X0.3580  Y1.1924  
G01 X0.3596  Y1.1930  
G01 X0.3609  Y1.1943  
G01 X0.3616  Y1.1960  
G01 X0.3616  Y1.2292  
G01 X0.3609  Y1.2309  
G01 X0.3596  Y1.2322  
G01 X0.3580  Y1.2328  
G00 Z0.1000  
G00 X0.1691  Y1.0430  
G01 Z-0.0070 F10    
G01 X0.1702  Y1.0426  F20    
G01 X0.1684  Y1.0408  
G01 X0.1684  Y1.0437  
G01 X0.1691  Y1.0430  
G00 Z0.1000  
G00 X0.2639  Y1.2031  
G01 Z-0.0070 F10    
G01 X0.2655  Y1.2031  F20    
G01 X0.2655  Y1.2015  
G01 X0.2639  Y1.2031  
G00 Z0.1000  
G00 X0.2116  Y1.2015  
G01 Z-0.0070 F10    
G01 X0.2116  Y1.2031  F20    
G01 X0.2132  Y1.2031  
G01 X0.2116  Y1.2015  
G00 Z0.1000  
G00 X0.8554  Y0.4111  
G01 Z-0.0070 F10    
G01 X0.8575  Y0.4090  F20    
G01 X0.8540  Y0.4090  
G01 X0.8540  Y0.4144  
G01 X0.8554  Y0.4111  
G00 Z0.1000  
G00 X0.8564  Y0.4702  
G01 Z-0.0070 F10    
G01 X0.8594  Y0.4702  F20    
G01 X0.8559  Y0.4667  
G01 X0.8559  Y0.4701  
G01 X0.8555  Y0.4706  
G01 X0.8564  Y0.4702  
G00 Z0.1000  
G00 X0.9127  Y0.5569  
G01 Z-0.0070 F10    
G01 X0.9121  Y0.5585  F20    
G01 X0.9139  Y0.5585  
G01 X0.9132  Y0.5569  
G01 X0.9132  Y0.5351  
G01 X0.9127  Y0.5369  
G01 X0.9127  Y0.5569  
G00 Z0.1000  
G00 X0.9139  Y0.5035  
G01 Z-0.0070 F10    
G01 X0.9152  Y0.5022  F20    
G01 X0.9168  Y0.5015  
G01 X0.9192  Y0.5015  
G01 X0.9192  Y0.4725  
G01 X0.9165  Y0.4736  
G01 X0.9127  Y0.4736  
G01 X0.9120  Y0.4733  
G01 X0.9126  Y0.4743  
G01 X0.9137  Y0.4785  
G01 X0.9137  Y0.5039  
G01 X0.9139  Y0.5035  
G00 Z0.1000  
G00 X0.9406  Y0.5015  
G01 Z-0.0070 F10    
G01 X0.9423  Y0.5022  F20    
G01 X0.9436  Y0.5035  
G01 X0.9442  Y0.5051  
G01 X0.9442  Y0.5569  
G01 X0.9436  Y0.5585  
G01 X0.9454  Y0.5585  
G01 X0.9447  Y0.5569  
G01 X0.9447  Y0.5051  
G01 X0.9454  Y0.5035  
G01 X0.9467  Y0.5022  
G01 X0.9483  Y0.5015  
G01 X0.9601  Y0.5015  
G01 X0.9919  Y0.4696  
G01 X0.9946  Y0.4669  
G01 X0.9977  Y0.4656  
G01 X0.9955  Y0.4634  
G01 X0.9947  Y0.4616  
G01 X0.9941  Y0.4623  
G01 X0.9924  Y0.4630  
G01 X0.9631  Y0.4630  
G01 X0.9614  Y0.4623  
G01 X0.9602  Y0.4610  
G01 X0.9595  Y0.4594  
G01 X0.9595  Y0.4567  
G01 X0.9382  Y0.4780  
G01 X0.9382  Y0.5015  
G01 X0.9406  Y0.5015  
G00 Z0.1000  
G00 X0.8175  Y0.4090  
G01 Z-0.0070 F10    
G01 X0.8196  Y0.4111  F20    
G01 X0.8210  Y0.4144  
G01 X0.8210  Y0.4090  
G01 X0.8175  Y0.4090  
G00 Z0.1000  
G00 X0.9383  Y0.2735  
G01 Z-0.0070 F10    
G01 X0.9404  Y0.2756  F20    
G01 X0.9405  Y0.2757  
G01 X0.9405  Y0.2735  
G01 X0.9383  Y0.2735  
G00 Z0.1000  
G00 X0.9596  Y0.2756  
G01 Z-0.0070 F10    
G01 X0.9617  Y0.2735  F20    
G01 X0.9595  Y0.2735  
G01 X0.9595  Y0.2759  
G01 X0.9596  Y0.2756  
G00 Z0.1000  
G00 X0.9198  Y0.2070  
G01 Z-0.0070 F10    
G01 X0.9179  Y0.2089  F20    
G01 X0.9144  Y0.2103  
G01 X0.9106  Y0.2103  
G01 X0.9096  Y0.2099  
G01 X0.9071  Y0.2089  
G01 X0.9052  Y0.2070  
G01 X0.9052  Y0.2680  
G01 X0.9071  Y0.2661  
G01 X0.9096  Y0.2651  
G01 X0.9106  Y0.2647  
G01 X0.9144  Y0.2647  
G01 X0.9179  Y0.2661  
G01 X0.9198  Y0.2680  
G01 X0.9198  Y0.2070  
G00 Z0.1000  
G00 X0.8853  Y0.1598  
G01 Z-0.0070 F10    
G01 X0.8861  Y0.1590  F20    
G01 X0.8845  Y0.1590  
G01 X0.8845  Y0.1606  
G01 X0.8853  Y0.1598  
G00 Z0.1000  
G00 X0.8640  Y0.1590  
G01 Z-0.0070 F10    
G01 X0.8648  Y0.1599  F20    
G01 X0.8655  Y0.1606  
G01 X0.8655  Y0.1590  
G01 X0.8640  Y0.1590  
G00 Z0.1000  
G00 X0.8647  Y0.2008  
G01 Z-0.0070 F10    
G01 X0.8640  Y0.2015  F20    
G01 X0.8656  Y0.2015  
G01 X0.8656  Y0.1999  
G01 X0.8647  Y0.2008  
G00 Z0.1000  
G00 X0.8861  Y0.2015  
G01 Z-0.0070 F10    
G01 X0.8853  Y0.2007  F20    
G01 X0.8846  Y0.1999  
G01 X0.8846  Y0.2015  
G01 X0.8861  Y0.2015  
G00 Z0.1000  
G00 X1.2139  Y0.1950  
G01 Z-0.0070 F10    
G01 X1.2155  Y0.1950  F20    
G01 X1.2155  Y0.1934  
G01 X1.2139  Y0.1950  
G00 Z0.1000  
G00 X1.2361  Y0.1950  
G01 Z-0.0070 F10    
G01 X1.2345  Y0.1934  F20    
G01 X1.2345  Y0.1950  
G01 X1.2361  Y0.1950  
G00 Z0.1000  
G00 X1.2422  Y0.1429  
G01 Z-0.0070 F10    
G01 X1.2422  Y0.1444  F20    
G01 X1.2428  Y0.1438  
G01 X1.2422  Y0.1429  
G00 Z0.1000  
G00 X1.1945  Y0.2552  
G01 Z-0.0070 F10    
G01 X1.1964  Y0.2571  F20    
G01 X1.1974  Y0.2596  
G01 X1.1978  Y0.2606  
G01 X1.1978  Y0.2644  
G01 X1.1964  Y0.2679  
G01 X1.1945  Y0.2698  
G01 X1.2555  Y0.2698  
G01 X1.2536  Y0.2679  
G01 X1.2522  Y0.2644  
G01 X1.2522  Y0.2606  
G01 X1.2526  Y0.2596  
G01 X1.2536  Y0.2571  
G01 X1.2555  Y0.2552  
G01 X1.1945  Y0.2552  
G00 Z0.1000  
G00 X1.1945  Y0.3300  
G01 Z-0.0070 F10    
G01 X1.1966  Y0.3321  F20    
G01 X1.1980  Y0.3356  
G01 X1.1980  Y0.3386  
G01 X1.2066  Y0.3300  
G01 X1.1945  Y0.3300  
G00 Z0.1000  
G00 X1.0485  Y0.7268  
G01 Z-0.0070 F10    
G01 X1.0501  Y0.7252  F20    
G01 X1.0485  Y0.7252  
G01 X1.0485  Y0.7268  
G00 Z0.1000  
G00 X1.0485  Y0.6332  
G01 Z-0.0070 F10    
G01 X1.0478  Y0.6348  F20    
G01 X1.0465  Y0.6361  
G01 X1.0449  Y0.6368  
G01 X0.9931  Y0.6368  
G01 X0.9915  Y0.6361  
G01 X0.9915  Y0.6379  
G01 X0.9931  Y0.6373  
G01 X1.0449  Y0.6373  
G01 X1.0465  Y0.6379  
G01 X1.0478  Y0.6392  
G01 X1.0485  Y0.6409  
G01 X1.0485  Y0.6433  
G01 X1.0892  Y0.6433  
G01 X1.0892  Y0.6429  
G01 X1.0911  Y0.6385  
G01 X1.0937  Y0.6346  
G01 X1.0971  Y0.6312  
G01 X1.1010  Y0.6286  
G01 X1.1054  Y0.6267  
G01 X1.1101  Y0.6258  
G01 X1.1149  Y0.6258  
G01 X1.1196  Y0.6267  
G01 X1.1240  Y0.6286  
G01 X1.1279  Y0.6312  
G01 X1.1313  Y0.6346  
G01 X1.1339  Y0.6385  
G01 X1.1358  Y0.6429  
G01 X1.1367  Y0.6476  
G01 X1.1367  Y0.6524  
G01 X1.1358  Y0.6571  
G01 X1.1339  Y0.6615  
G01 X1.1313  Y0.6654  
G01 X1.1279  Y0.6688  
G01 X1.1240  Y0.6714  
G01 X1.1196  Y0.6733  
G01 X1.1149  Y0.6742  
G01 X1.1101  Y0.6742  
G01 X1.1054  Y0.6733  
G01 X1.1010  Y0.6714  
G01 X1.0971  Y0.6688  
G01 X1.0937  Y0.6654  
G01 X1.0916  Y0.6623  
G01 X1.0485  Y0.6623  
G01 X1.0485  Y0.6647  
G01 X1.0478  Y0.6663  
G01 X1.0465  Y0.6676  
G01 X1.0449  Y0.6683  
G01 X0.9931  Y0.6683  
G01 X0.9915  Y0.6676  
G01 X0.9915  Y0.6691  
G01 X0.9913  Y0.6696  
G01 X0.9915  Y0.6694  
G01 X0.9931  Y0.6688  
G01 X1.0449  Y0.6688  
G01 X1.0465  Y0.6694  
G01 X1.0478  Y0.6707  
G01 X1.0485  Y0.6724  
G01 X1.0485  Y0.6961  
G01 X1.0478  Y0.6978  
G01 X1.0465  Y0.6991  
G01 X1.0449  Y0.6998  
G01 X0.9931  Y0.6998  
G01 X0.9915  Y0.6991  
G01 X0.9913  Y0.6989  
G01 X0.9915  Y0.6994  
G01 X0.9915  Y0.7009  
G01 X0.9931  Y0.7002  
G01 X1.0449  Y0.7002  
G01 X1.0465  Y0.7009  
G01 X1.0478  Y0.7022  
G01 X1.0485  Y0.7039  
G01 X1.0485  Y0.7062  
G01 X1.0928  Y0.7062  
G01 X1.1405  Y0.6586  
G01 X1.1405  Y0.5856  
G01 X1.1419  Y0.5821  
G01 X1.1446  Y0.5794  
G01 X1.1905  Y0.5336  
G01 X1.1905  Y0.4231  
G01 X1.1919  Y0.4196  
G01 X1.1931  Y0.4185  
G01 X1.1920  Y0.4185  
G01 X1.1901  Y0.4185  
G01 X1.1886  Y0.4178  
G01 X1.1866  Y0.4170  
G01 X1.1853  Y0.4157  
G01 X1.1845  Y0.4149  
G01 X1.1845  Y0.5269  
G01 X1.1831  Y0.5304  
G01 X1.0868  Y0.6266  
G01 X1.0841  Y0.6293  
G01 X1.0806  Y0.6308  
G01 X1.0485  Y0.6308  
G01 X1.0485  Y0.6332  
G00 Z0.1000  
G00 X1.0617  Y0.6096  
G01 Z-0.0070 F10    
G01 X1.0603  Y0.6061  F20    
G01 X1.0603  Y0.6024  
G01 X1.0607  Y0.6014  
G01 X1.0616  Y0.5993  
G01 X1.0485  Y0.5993  
G01 X1.0485  Y0.6017  
G01 X1.0478  Y0.6033  
G01 X1.0465  Y0.6046  
G01 X1.0449  Y0.6053  
G01 X0.9931  Y0.6053  
G01 X0.9915  Y0.6046  
G01 X0.9915  Y0.6064  
G01 X0.9931  Y0.6058  
G01 X1.0449  Y0.6058  
G01 X1.0465  Y0.6064  
G01 X1.0478  Y0.6077  
G01 X1.0485  Y0.6094  
G01 X1.0485  Y0.6118  
G01 X1.0638  Y0.6118  
G01 X1.0617  Y0.6096  
G00 Z0.1000  
G00 X1.0487  Y0.5799  
G01 Z-0.0070 F10    
G01 X1.0485  Y0.5797  F20    
G01 X1.0485  Y0.5803  
G01 X1.0495  Y0.5803  
G01 X1.0487  Y0.5799  
G00 Z0.1000  
G00 X1.1361  Y0.3300  
G01 Z-0.0070 F10    
G01 X1.1345  Y0.3300  F20    
G01 X1.1345  Y0.3316  
G01 X1.1361  Y0.3300  
G00 Z0.1000  
G00 X1.1139  Y0.3300  
G01 Z-0.0070 F10    
G01 X1.1155  Y0.3316  F20    
G01 X1.1155  Y0.3300  
G01 X1.1139  Y0.3300  
G00 Z0.1000  
G00 X1.3451  Y0.2655  
G01 Z-0.0070 F10    
G01 X1.3447  Y0.2644  F20    
G01 X1.3447  Y0.2606  
G01 X1.3451  Y0.2595  
G01 X1.3049  Y0.2595  
G01 X1.3053  Y0.2606  
G01 X1.3053  Y0.2644  
G01 X1.3049  Y0.2655  
G01 X1.3451  Y0.2655  
G00 Z0.1000  
G00 X2.5366  Y0.6985  
G01 Z-0.0070 F10    
G01 X2.5345  Y0.6985  F20    
G01 X2.5345  Y0.7006  
G01 X2.5366  Y0.6985  
G00 Z0.1000  
G00 X2.5139  Y0.6985  
G01 Z-0.0070 F10    
G01 X2.5155  Y0.7001  F20    
G01 X2.5155  Y0.6985  
G01 X2.5139  Y0.6985  
G00 Z0.1000  
G00 X2.5636  Y0.7354  
G01 Z-0.0070 F10    
G01 X2.5613  Y0.7354  F20    
G01 X2.5625  Y0.7365  
G01 X2.5636  Y0.7354  
G00 Z0.1000  
G00 X2.2991  Y0.7180  
G01 Z-0.0070 F10    
G01 X2.3509  Y0.7180  F20    
G01 X2.3525  Y0.7187  
G01 X2.3525  Y0.7175  
G01 X2.3525  Y0.7163  
G01 X2.3509  Y0.7170  
G01 X2.2991  Y0.7170  
G01 X2.2975  Y0.7163  
G01 X2.2975  Y0.7175  
G01 X2.2975  Y0.7187  
G01 X2.2991  Y0.7180  
G00 Z0.1000  
G00 X2.2955  Y0.7111  
G01 Z-0.0070 F10    
G01 X2.2955  Y0.7095  F20    
G01 X2.2939  Y0.7095  
G01 X2.2955  Y0.7111  
G00 Z0.1000  
G00 X2.2955  Y0.6885  
G01 Z-0.0070 F10    
G01 X2.2947  Y0.6893  F20    
G01 X2.2917  Y0.6905  
G01 X2.2955  Y0.6905  
G01 X2.2955  Y0.6885  
G00 Z0.1000  
G00 X1.9759  Y1.1920  
G01 Z-0.0070 F10    
G01 X1.9241  Y1.1920  F20    
G01 X1.9225  Y1.1913  
G01 X1.9225  Y1.1925  
G01 X1.9225  Y1.1937  
G01 X1.9241  Y1.1930  
G01 X1.9759  Y1.1930  
G01 X1.9775  Y1.1937  
G01 X1.9775  Y1.1925  
G01 X1.9775  Y1.1913  
G01 X1.9759  Y1.1920  
G00 Z0.1000  
G00 X1.9205  Y1.1861  
G01 Z-0.0070 F10    
G01 X1.9205  Y1.1845  F20    
G01 X1.9189  Y1.1845  
G01 X1.9205  Y1.1861  
G00 Z0.1000  
G00 X1.9205  Y1.1635  
G01 Z-0.0070 F10    
G01 X1.9197  Y1.1643  F20    
G01 X1.9167  Y1.1655  
G01 X1.9205  Y1.1655  
G01 X1.9205  Y1.1635  
G00 Z0.1000  
G00 X1.7259  Y1.1920  
G01 Z-0.0070 F10    
G01 X1.6741  Y1.1920  F20    
G01 X1.6725  Y1.1913  
G01 X1.6725  Y1.1925  
G01 X1.6725  Y1.1937  
G01 X1.6741  Y1.1930  
G01 X1.7259  Y1.1930  
G01 X1.7275  Y1.1937  
G01 X1.7275  Y1.1925  
G01 X1.7275  Y1.1913  
G01 X1.7259  Y1.1920  
G00 Z0.1000  
G00 X1.6705  Y1.1861  
G01 Z-0.0070 F10    
G01 X1.6705  Y1.1845  F20    
G01 X1.6689  Y1.1845  
G01 X1.6705  Y1.1861  
G00 Z0.1000  
G00 X1.6705  Y1.1635  
G01 Z-0.0070 F10    
G01 X1.6697  Y1.1643  F20    
G01 X1.6667  Y1.1655  
G01 X1.6705  Y1.1655  
G01 X1.6705  Y1.1635  
G00 Z0.1000  
G00 X1.5491  Y0.7180  
G01 Z-0.0070 F10    
G01 X1.6009  Y0.7180  F20    
G01 X1.6025  Y0.7187  
G01 X1.6025  Y0.7175  
G01 X1.6025  Y0.7163  
G01 X1.6009  Y0.7170  
G01 X1.5491  Y0.7170  
G01 X1.5475  Y0.7163  
G01 X1.5475  Y0.7175  
G01 X1.5475  Y0.7187  
G01 X1.5491  Y0.7180  
G00 Z0.1000  
G00 X1.5455  Y0.6885  
G01 Z-0.0070 F10    
G01 X1.5447  Y0.6893  F20    
G01 X1.5417  Y0.6905  
G01 X1.5455  Y0.6905  
G01 X1.5455  Y0.6885  
G00 Z0.1000  
G00 X1.5455  Y0.7111  
G01 Z-0.0070 F10    
G01 X1.5455  Y0.7095  F20    
G01 X1.5439  Y0.7095  
G01 X1.5455  Y0.7111  
G00 Z0.1000  
G00 X1.6009  Y0.7609  
G01 Z-0.0070 F10    
G01 X1.6009  Y0.7609  F20    
G01 X1.6007  Y0.7603  
G01 X1.5995  Y0.7574  
G01 X1.5995  Y0.7536  
G01 X1.6001  Y0.7520  
G01 X1.5915  Y0.7520  
G01 X1.5915  Y0.7630  
G01 X1.6030  Y0.7630  
G01 X1.6009  Y0.7609  
G00 Z0.1000  
G00 X1.7999  Y0.7520  
G01 Z-0.0070 F10    
G01 X1.8005  Y0.7536  F20    
G01 X1.8005  Y0.7574  
G01 X1.7993  Y0.7602  
G01 X1.7991  Y0.7609  
G01 X1.7970  Y0.7630  
G01 X1.8085  Y0.7630  
G01 X1.8085  Y0.7520  
G01 X1.7999  Y0.7520  
G00 Z0.1000  
G00 X1.8509  Y0.7609  
G01 Z-0.0070 F10    
G01 X1.8509  Y0.7609  F20    
G01 X1.8507  Y0.7603  
G01 X1.8495  Y0.7574  
G01 X1.8495  Y0.7536  
G01 X1.8501  Y0.7520  
G01 X1.8415  Y0.7520  
G01 X1.8415  Y0.7630  
G01 X1.8530  Y0.7630  
G01 X1.8509  Y0.7609  
G00 Z0.1000  
G00 X2.0585  Y0.7989  
G01 Z-0.0070 F10    
G01 X2.0569  Y0.8005  F20    
G01 X2.0585  Y0.8005  
G01 X2.0585  Y0.7989  
G00 Z0.1000  
G00 X2.0931  Y0.7955  
G01 Z-0.0070 F10    
G01 X2.0915  Y0.7939  F20    
G01 X2.0915  Y0.7955  
G01 X2.0931  Y0.7955  
G00 Z0.1000  
G00 X2.0931  Y0.7520  
G01 Z-0.0070 F10    
G01 X2.0915  Y0.7520  F20    
G01 X2.0915  Y0.7536  
G01 X2.0931  Y0.7520  
G00 Z0.1000  
G00 X2.0569  Y0.7520  
G01 Z-0.0070 F10    
G01 X2.0585  Y0.7536  F20    
G01 X2.0585  Y0.7520  
G01 X2.0569  Y0.7520  
G00 Z0.1000  
G00 X1.5569  Y0.7520  
G01 Z-0.0070 F10    
G01 X1.5585  Y0.7536  F20    
G01 X1.5585  Y0.7520  
G01 X1.5569  Y0.7520  
G00 Z0.1000  
G00 X2.2259  Y1.1920  
G01 Z-0.0070 F10    
G01 X2.1741  Y1.1920  F20    
G01 X2.1725  Y1.1913  
G01 X2.1725  Y1.1925  
G01 X2.1725  Y1.1937  
G01 X2.1741  Y1.1930  
G01 X2.2259  Y1.1930  
G01 X2.2275  Y1.1937  
G01 X2.2275  Y1.1925  
G01 X2.2275  Y1.1913  
G01 X2.2259  Y1.1920  
G00 Z0.1000  
G00 X2.1705  Y1.1861  
G01 Z-0.0070 F10    
G01 X2.1705  Y1.1845  F20    
G01 X2.1689  Y1.1845  
G01 X2.1705  Y1.1861  
G00 Z0.1000  
G00 X2.1705  Y1.1635  
G01 Z-0.0070 F10    
G01 X2.1697  Y1.1643  F20    
G01 X2.1667  Y1.1655  
G01 X2.1705  Y1.1655  
G01 X2.1705  Y1.1635  
G00 Z0.1000  
G00 X1.4205  Y1.1861  
G01 Z-0.0070 F10    
G01 X1.4205  Y1.1845  F20    
G01 X1.4189  Y1.1845  
G01 X1.4205  Y1.1861  
G00 Z0.1000  
G00 X1.4205  Y1.1635  
G01 Z-0.0070 F10    
G01 X1.4197  Y1.1643  F20    
G01 X1.4167  Y1.1655  
G01 X1.4205  Y1.1655  
G01 X1.4205  Y1.1635  
G00 Z0.1000  
G00 X1.4241  Y1.1930  
G01 Z-0.0070 F10    
G01 X1.4759  Y1.1930  F20    
G01 X1.4775  Y1.1937  
G01 X1.4775  Y1.1925  
G01 X1.4775  Y1.1913  
G01 X1.4759  Y1.1920  
G01 X1.4241  Y1.1920  
G01 X1.4225  Y1.1913  
G01 X1.4225  Y1.1925  
G01 X1.4225  Y1.1937  
G01 X1.4241  Y1.1930  
G00 Z0.1000  
G00 X2.0491  Y0.7180  
G01 Z-0.0070 F10    
G01 X2.1009  Y0.7180  F20    
G01 X2.1025  Y0.7187  
G01 X2.1025  Y0.7175  
G01 X2.1025  Y0.7163  
G01 X2.1009  Y0.7170  
G01 X2.0491  Y0.7170  
G01 X2.0475  Y0.7163  
G01 X2.0475  Y0.7175  
G01 X2.0475  Y0.7187  
G01 X2.0491  Y0.7180  
G00 Z0.1000  
G00 X2.0455  Y0.7111  
G01 Z-0.0070 F10    
G01 X2.0455  Y0.7095  F20    
G01 X2.0439  Y0.7095  
G01 X2.0455  Y0.7111  
G00 Z0.1000  
G00 X2.0455  Y0.6885  
G01 Z-0.0070 F10    
G01 X2.0447  Y0.6893  F20    
G01 X2.0417  Y0.6905  
G01 X2.0455  Y0.6905  
G01 X2.0455  Y0.6885  
G00 Z0.1000  
G00 X1.7991  Y0.7180  
G01 Z-0.0070 F10    
G01 X1.8509  Y0.7180  F20    
G01 X1.8525  Y0.7187  
G01 X1.8525  Y0.7175  
G01 X1.8525  Y0.7163  
G01 X1.8509  Y0.7170  
G01 X1.7991  Y0.7170  
G01 X1.7975  Y0.7163  
G01 X1.7975  Y0.7175  
G01 X1.7975  Y0.7187  
G01 X1.7991  Y0.7180  
G00 Z0.1000  
G00 X1.7955  Y0.7111  
G01 Z-0.0070 F10    
G01 X1.7955  Y0.7095  F20    
G01 X1.7939  Y0.7095  
G01 X1.7955  Y0.7111  
G00 Z0.1000  
G00 X1.7955  Y0.6885  
G01 Z-0.0070 F10    
G01 X1.7947  Y0.6893  F20    
G01 X1.7923  Y0.6903  
G01 X1.7917  Y0.6905  
G01 X1.7955  Y0.6905  
G01 X1.7955  Y0.6885  
G00 Z0.1000  
G00 X0.7297  Y0.8395  
G01 Z-0.0070 F10    
G01 X0.7303  Y0.8395  F20    
G01 X0.7303  Y0.8390  
G01 X0.7297  Y0.8395  
G00 Z0.1000  
G00 X0.7691  Y1.0174  
G01 Z-0.0070 F10    
G01 X0.7740  Y1.0125  F20    
G01 X0.7594  Y0.9978  
G01 X0.7595  Y0.9981  
G01 X0.7595  Y1.0211  
G01 X0.7691  Y1.0307  
G01 X0.7691  Y1.0174  
G00 Z0.1000  
G00 X0.7951  Y1.0441  
G01 Z-0.0070 F10    
G01 X0.7959  Y1.0449  F20    
G01 X0.7959  Y1.0426  
G01 X0.7951  Y1.0434  
G01 X0.7818  Y1.0434  
G01 X0.7825  Y1.0441  
G01 X0.7951  Y1.0441  
G00 Z0.1000  
G00 X0.7105  Y0.7047  
G01 Z-0.0070 F10    
G01 X0.7105  Y0.7062  F20    
G01 X0.7121  Y0.7062  
G01 X0.7105  Y0.7047  
G00 Z0.1000  
G00 X0.6515  Y0.6748  
G01 Z-0.0070 F10    
G01 X0.6515  Y0.6724  F20    
G01 X0.6522  Y0.6707  
G01 X0.6535  Y0.6694  
G01 X0.6551  Y0.6688  
G01 X0.7069  Y0.6688  
G01 X0.7085  Y0.6694  
G01 X0.7085  Y0.6676  
G01 X0.7069  Y0.6683  
G01 X0.6551  Y0.6683  
G01 X0.6535  Y0.6676  
G01 X0.6522  Y0.6663  
G01 X0.6515  Y0.6647  
G01 X0.6515  Y0.6623  
G01 X0.6387  Y0.6623  
G01 X0.6331  Y0.6679  
G01 X0.6304  Y0.6706  
G01 X0.6269  Y0.6720  
G01 X0.5542  Y0.6720  
G01 X0.5066  Y0.7236  
G01 X0.5078  Y0.7236  
G01 X0.5095  Y0.7235  
G01 X0.5097  Y0.7236  
G01 X0.5099  Y0.7236  
G01 X0.5115  Y0.7242  
G01 X0.5131  Y0.7248  
G01 X0.5132  Y0.7249  
G01 X0.5134  Y0.7250  
G01 X0.5146  Y0.7262  
G01 X0.5155  Y0.7271  
G01 X0.5155  Y0.7231  
G01 X0.5169  Y0.7196  
G01 X0.5196  Y0.7169  
G01 X0.5604  Y0.6762  
G01 X0.5639  Y0.6748  
G01 X0.5676  Y0.6748  
G01 X0.6515  Y0.6748  
G00 Z0.1000  
G00 X0.7168  Y1.2901  
G01 Z-0.0070 F10    
G01 X0.7159  Y1.2905  F20    
G01 X0.7167  Y1.2905  
G01 X0.7168  Y1.2901  
G00 Z0.1000  
G00 X0.5263  Y1.1884  
G01 Z-0.0070 F10    
G01 X0.5279  Y1.1884  F20    
G01 X0.5279  Y1.1868  
G01 X0.5263  Y1.1884  
G00 Z0.1000  
G00 X0.5576  Y1.2111  
G01 Z-0.0070 F10    
G01 X0.5592  Y1.2095  F20    
G01 X0.5576  Y1.2095  
G01 X0.5576  Y1.2111  
G00 Z0.1000  
G00 X0.5549  Y0.9809  
G01 Z-0.0070 F10    
G01 X0.5441  Y0.9701  F20    
G01 X0.5441  Y0.9549  
G01 X0.5549  Y0.9441  
G01 X0.5655  Y0.9441  
G01 X0.5655  Y0.8414  
G01 X0.5610  Y0.8369  
G01 X0.5610  Y0.8391  
G01 X0.5603  Y0.8407  
G01 X0.5590  Y0.8420  
G01 X0.5574  Y0.8427  
G01 X0.4945  Y0.8427  
G01 X0.4964  Y0.8446  
G01 X0.4974  Y0.8471  
G01 X0.4978  Y0.8481  
G01 X0.4978  Y0.8519  
G01 X0.4964  Y0.8554  
G01 X0.4945  Y0.8573  
G01 X0.5574  Y0.8573  
G01 X0.5590  Y0.8580  
G01 X0.5603  Y0.8593  
G01 X0.5610  Y0.8609  
G01 X0.5610  Y0.9139  
G01 X0.5603  Y0.9155  
G01 X0.5590  Y0.9168  
G01 X0.5574  Y0.9175  
G01 X0.5209  Y0.9175  
G01 X0.5184  Y0.9200  
G01 X0.5184  Y0.9326  
G01 X0.5095  Y0.9415  
G01 X0.5095  Y1.1211  
G01 X0.5166  Y1.1211  
G01 X0.5183  Y1.1218  
G01 X0.5196  Y1.1230  
G01 X0.5202  Y1.1247  
G01 X0.5202  Y1.1619  
G01 X0.5196  Y1.1635  
G01 X0.5223  Y1.1635  
G01 X0.5258  Y1.1650  
G01 X0.5279  Y1.1671  
G01 X0.5279  Y1.0828  
G01 X0.5208  Y1.0828  
G01 X0.5191  Y1.0822  
G01 X0.5178  Y1.0809  
G01 X0.5172  Y1.0792  
G01 X0.5172  Y1.0420  
G01 X0.5178  Y1.0404  
G01 X0.5191  Y1.0391  
G01 X0.5208  Y1.0384  
G01 X0.5540  Y1.0384  
G01 X0.5557  Y1.0391  
G01 X0.5570  Y1.0404  
G01 X0.5576  Y1.0420  
G01 X0.5576  Y1.0792  
G01 X0.5570  Y1.0809  
G01 X0.5557  Y1.0822  
G01 X0.5540  Y1.0828  
G01 X0.5469  Y1.0828  
G01 X0.5469  Y1.1884  
G01 X0.5540  Y1.1884  
G01 X0.5557  Y1.1891  
G01 X0.5570  Y1.1904  
G01 X0.5570  Y1.1905  
G01 X0.5769  Y1.1905  
G01 X0.5804  Y1.1919  
G01 X0.5831  Y1.1946  
G01 X0.6581  Y1.2696  
G01 X0.6595  Y1.2731  
G01 X0.6595  Y1.2789  
G01 X0.6616  Y1.2767  
G01 X0.6651  Y1.2753  
G01 X0.6681  Y1.2753  
G01 X0.5634  Y1.1706  
G01 X0.5607  Y1.1679  
G01 X0.5593  Y1.1644  
G01 X0.5593  Y0.9809  
G01 X0.5549  Y0.9809  
G00 Z0.1000  
G00 X0.5804  Y1.0143  
G01 Z-0.0070 F10    
G01 X0.5839  Y1.0129  F20    
G01 X0.5869  Y1.0129  
G01 X0.5816  Y1.0076  
G01 X0.5816  Y0.9924  
G01 X0.5924  Y0.9816  
G01 X0.6050  Y0.9816  
G01 X0.6071  Y0.9794  
G01 X0.6106  Y0.9780  
G01 X0.6835  Y0.9780  
G01 X0.6924  Y0.9691  
G01 X0.7057  Y0.9691  
G01 X0.6669  Y0.9304  
G01 X0.6655  Y0.9269  
G01 X0.6655  Y0.8664  
G01 X0.6321  Y0.8331  
G01 X0.6294  Y0.8304  
G01 X0.6280  Y0.8269  
G01 X0.6280  Y0.7606  
G01 X0.6294  Y0.7571  
G01 X0.6419  Y0.7446  
G01 X0.6446  Y0.7419  
G01 X0.6481  Y0.7405  
G01 X0.6515  Y0.7405  
G01 X0.6515  Y0.7353  
G01 X0.6522  Y0.7337  
G01 X0.6535  Y0.7324  
G01 X0.6551  Y0.7317  
G01 X0.7069  Y0.7317  
G01 X0.7085  Y0.7324  
G01 X0.7098  Y0.7337  
G01 X0.7105  Y0.7353  
G01 X0.7105  Y0.7591  
G01 X0.7098  Y0.7608  
G01 X0.7085  Y0.7621  
G01 X0.7069  Y0.7627  
G01 X0.6551  Y0.7627  
G01 X0.6535  Y0.7621  
G01 X0.6524  Y0.7610  
G01 X0.6470  Y0.7664  
G01 X0.6470  Y0.8211  
G01 X0.6804  Y0.8544  
G01 X0.6831  Y0.8571  
G01 X0.6843  Y0.8600  
G01 X0.6843  Y0.8269  
G01 X0.6831  Y0.8257  
G01 X0.6551  Y0.8257  
G01 X0.6535  Y0.8251  
G01 X0.6522  Y0.8238  
G01 X0.6515  Y0.8221  
G01 X0.6515  Y0.7983  
G01 X0.6522  Y0.7967  
G01 X0.6535  Y0.7954  
G01 X0.6551  Y0.7947  
G01 X0.7069  Y0.7947  
G01 X0.7085  Y0.7954  
G01 X0.7085  Y0.7939  
G01 X0.7087  Y0.7934  
G01 X0.7085  Y0.7936  
G01 X0.7069  Y0.7942  
G01 X0.6551  Y0.7942  
G01 X0.6535  Y0.7936  
G01 X0.6522  Y0.7923  
G01 X0.6515  Y0.7906  
G01 X0.6515  Y0.7668  
G01 X0.6522  Y0.7652  
G01 X0.6535  Y0.7639  
G01 X0.6551  Y0.7632  
G01 X0.7069  Y0.7632  
G01 X0.7085  Y0.7639  
G01 X0.7098  Y0.7652  
G01 X0.7105  Y0.7668  
G01 X0.7105  Y0.7692  
G01 X0.7173  Y0.7692  
G01 X0.7544  Y0.7321  
G01 X0.7571  Y0.7294  
G01 X0.7606  Y0.7280  
G01 X0.8316  Y0.7280  
G01 X0.8316  Y0.7193  
G01 X0.8271  Y0.7238  
G01 X0.8236  Y0.7252  
G01 X0.7105  Y0.7252  
G01 X0.7105  Y0.7276  
G01 X0.7098  Y0.7293  
G01 X0.7085  Y0.7306  
G01 X0.7069  Y0.7312  
G01 X0.6551  Y0.7312  
G01 X0.6535  Y0.7306  
G01 X0.6522  Y0.7293  
G01 X0.6515  Y0.7276  
G01 X0.6515  Y0.7039  
G01 X0.6522  Y0.7022  
G01 X0.6535  Y0.7009  
G01 X0.6551  Y0.7002  
G01 X0.7069  Y0.7002  
G01 X0.7085  Y0.7009  
G01 X0.7087  Y0.7011  
G01 X0.7085  Y0.7006  
G01 X0.7085  Y0.6991  
G01 X0.7069  Y0.6998  
G01 X0.6551  Y0.6998  
G01 X0.6535  Y0.6991  
G01 X0.6522  Y0.6978  
G01 X0.6515  Y0.6961  
G01 X0.6515  Y0.6938  
G01 X0.5697  Y0.6938  
G01 X0.5345  Y0.7289  
G01 X0.5345  Y0.7825  
G01 X0.5574  Y0.7825  
G01 X0.5590  Y0.7832  
G01 X0.5603  Y0.7845  
G01 X0.5610  Y0.7861  
G01 X0.5610  Y0.8101  
G01 X0.5831  Y0.8321  
G01 X0.5845  Y0.8356  
G01 X0.5845  Y0.9644  
G01 X0.5831  Y0.9679  
G01 X0.5809  Y0.9700  
G01 X0.5782  Y0.9728  
G01 X0.5782  Y1.0165  
G01 X0.5804  Y1.0143  
G00 Z0.1000  
G00 X0.6184  Y0.9986  
G01 Z-0.0070 F10    
G01 X0.6200  Y0.9970  F20    
G01 X0.6184  Y0.9970  
G01 X0.6184  Y0.9986  
G00 Z0.1000  
G00 X0.7197  Y0.9910  
G01 Z-0.0070 F10    
G01 X0.7232  Y0.9896  F20    
G01 X0.7262  Y0.9896  
G01 X0.7184  Y0.9818  
G01 X0.7184  Y0.9923  
G01 X0.7197  Y0.9910  
G00 Z0.1000  
G00 X0.6934  Y1.1186  
G01 Z-0.0070 F10    
G01 X0.6934  Y1.1224  F20    
G01 X0.6919  Y1.1259  
G01 X0.6898  Y1.1280  
G01 X0.7211  Y1.1280  
G01 X0.7316  Y1.1175  
G01 X0.7316  Y1.1077  
G01 X0.7314  Y1.1079  
G01 X0.7313  Y1.1080  
G01 X0.7278  Y1.1095  
G01 X0.7240  Y1.1095  
G01 X0.7205  Y1.1080  
G01 X0.7184  Y1.1059  
G01 X0.7184  Y1.1076  
G01 X0.7076  Y1.1184  
G01 X0.6933  Y1.1184  
G01 X0.6934  Y1.1186  
G00 Z0.1000  
G00 X0.5804  Y1.0768  
G01 Z-0.0070 F10    
G01 X0.5839  Y1.0754  F20    
G01 X0.5869  Y1.0754  
G01 X0.5816  Y1.0701  
G01 X0.5816  Y1.0549  
G01 X0.5869  Y1.0496  
G01 X0.5839  Y1.0496  
G01 X0.5804  Y1.0482  
G01 X0.5782  Y1.0460  
G01 X0.5782  Y1.0790  
G01 X0.5804  Y1.0768  
G00 Z0.1000  
G00 X0.8116  Y1.2183  
G01 Z-0.0070 F10    
G01 X0.8151  Y1.2169  F20    
G01 X0.8189  Y1.2169  
G01 X0.8199  Y1.2173  
G01 X0.8201  Y1.2174  
G01 X0.8194  Y1.2163  
G01 X0.8168  Y1.2101  
G01 X0.8155  Y1.2034  
G01 X0.8155  Y1.1966  
G01 X0.8168  Y1.1899  
G01 X0.8194  Y1.1837  
G01 X0.8201  Y1.1826  
G01 X0.8199  Y1.1827  
G01 X0.8189  Y1.1831  
G01 X0.8151  Y1.1831  
G01 X0.8116  Y1.1817  
G01 X0.8095  Y1.1795  
G01 X0.8095  Y1.2205  
G01 X0.8116  Y1.2183  
G00 Z0.1000  
G00 X0.5139  Y0.7825  
G01 Z-0.0070 F10    
G01 X0.5155  Y0.7825  F20    
G01 X0.5155  Y0.7809  
G01 X0.5139  Y0.7825  
G00 Z0.1000  
G00 X0.5479  Y0.6531  
G01 Z-0.0070 F10    
G01 X0.5481  Y0.6530  F20    
G01 X0.5498  Y0.6530  
G01 X0.5515  Y0.6529  
G01 X0.5517  Y0.6530  
G01 X0.6211  Y0.6530  
G01 X0.6294  Y0.6447  
G01 X0.6329  Y0.6433  
G01 X0.6515  Y0.6433  
G01 X0.6515  Y0.6409  
G01 X0.6522  Y0.6392  
G01 X0.6535  Y0.6379  
G01 X0.6551  Y0.6373  
G01 X0.7069  Y0.6373  
G01 X0.7085  Y0.6379  
G01 X0.7085  Y0.6361  
G01 X0.7069  Y0.6368  
G01 X0.6551  Y0.6368  
G01 X0.6535  Y0.6361  
G01 X0.6522  Y0.6348  
G01 X0.6515  Y0.6332  
G01 X0.6515  Y0.6308  
G01 X0.6327  Y0.6308  
G01 X0.6179  Y0.6456  
G01 X0.6144  Y0.6470  
G01 X0.5539  Y0.6470  
G01 X0.5479  Y0.6531  
G00 Z0.1000  
G00 X0.3980  Y0.7280  
G01 Z-0.0070 F10    
G01 X0.3991  Y0.7280  F20    
G01 X0.4010  Y0.7280  
G01 X0.4028  Y0.7288  
G01 X0.4045  Y0.7295  
G01 X0.4062  Y0.7313  
G01 X0.4071  Y0.7322  
G01 X0.4078  Y0.7338  
G01 X0.4081  Y0.7346  
G01 X0.4174  Y0.7253  
G01 X0.4326  Y0.7253  
G01 X0.4415  Y0.7342  
G01 X0.4708  Y0.7342  
G01 X0.5207  Y0.6802  
G01 X0.4831  Y0.7179  
G01 X0.4804  Y0.7206  
G01 X0.4769  Y0.7220  
G01 X0.4040  Y0.7220  
G01 X0.3980  Y0.7280  
G00 Z0.1000  
G00 X0.6515  Y0.6102  
G01 Z-0.0070 F10    
G01 X0.6499  Y0.6118  F20    
G01 X0.6515  Y0.6118  
G01 X0.6515  Y0.6102  
G00 Z0.1000  
G00 X0.1672  Y1.2825  
G01 Z-0.0070 F10    
G01 X0.1672  Y1.2809  F20    
G01 X0.1656  Y1.2809  
G01 X0.1672  Y1.2825  
G00 Z0.1000  
G00 X0.2116  Y1.2985  
G01 Z-0.0070 F10    
G01 X0.2132  Y1.2969  F20    
G01 X0.2116  Y1.2969  
G01 X0.2116  Y1.2985  
G00 Z0.1000  
G00 X0.3172  Y1.2985  
G01 Z-0.0070 F10    
G01 X0.3172  Y1.2969  F20    
G01 X0.3156  Y1.2969  
G01 X0.3172  Y1.2985  
G00 Z0.1000  
G00 X0.8576  Y0.7066  
G01 Z-0.0070 F10    
G01 X0.8584  Y0.7074  F20    
G01 X0.8584  Y0.7051  
G01 X0.8576  Y0.7059  
G01 X0.8450  Y0.7059  
G01 X0.8443  Y0.7066  
G01 X0.8576  Y0.7066  
G00 Z0.1000  
G00 X0.8111  Y0.8395  
G01 Z-0.0070 F10    
G01 X0.8095  Y0.8379  F20    
G01 X0.8095  Y0.8395  
G01 X0.8111  Y0.8395  
G00 Z0.1000  
G00 X0.7355  Y0.7779  
G01 Z-0.0070 F10    
G01 X0.7385  Y0.7779  F20    
G01 X0.7420  Y0.7794  
G01 X0.7441  Y0.7815  
G01 X0.7441  Y0.7799  
G01 X0.7549  Y0.7691  
G01 X0.7701  Y0.7691  
G01 X0.7809  Y0.7799  
G01 X0.7809  Y0.7951  
G01 X0.7701  Y0.8059  
G01 X0.7575  Y0.8059  
G01 X0.7493  Y0.8142  
G01 X0.7493  Y0.8395  
G01 X0.7517  Y0.8395  
G01 X0.7533  Y0.8402  
G01 X0.7546  Y0.8415  
G01 X0.7553  Y0.8431  
G01 X0.7553  Y0.8949  
G01 X0.7546  Y0.8965  
G01 X0.7561  Y0.8965  
G01 X0.7566  Y0.8967  
G01 X0.7564  Y0.8965  
G01 X0.7558  Y0.8949  
G01 X0.7558  Y0.8431  
G01 X0.7564  Y0.8415  
G01 X0.7577  Y0.8402  
G01 X0.7594  Y0.8395  
G01 X0.7832  Y0.8395  
G01 X0.7848  Y0.8402  
G01 X0.7861  Y0.8415  
G01 X0.7868  Y0.8431  
G01 X0.7868  Y0.8949  
G01 X0.7861  Y0.8965  
G01 X0.7859  Y0.8967  
G01 X0.7864  Y0.8965  
G01 X0.7879  Y0.8965  
G01 X0.7873  Y0.8949  
G01 X0.7873  Y0.8431  
G01 X0.7879  Y0.8415  
G01 X0.7892  Y0.8402  
G01 X0.7905  Y0.8396  
G01 X0.7905  Y0.7853  
G01 X0.7816  Y0.7764  
G01 X0.7816  Y0.7611  
G01 X0.7924  Y0.7503  
G01 X0.8076  Y0.7503  
G01 X0.8129  Y0.7556  
G01 X0.8129  Y0.7526  
G01 X0.8143  Y0.7491  
G01 X0.8165  Y0.7470  
G01 X0.7664  Y0.7470  
G01 X0.7355  Y0.7779  
G00 Z0.1000  
G00 X0.7105  Y0.7898  
G01 Z-0.0070 F10    
G01 X0.7121  Y0.7882  F20    
G01 X0.7105  Y0.7882  
G01 X0.7105  Y0.7898  
G00 Z0.1000  
G00 X0.7048  Y0.8257  
G01 Z-0.0070 F10    
G01 X0.7032  Y0.8257  F20    
G01 X0.7032  Y0.8273  
G01 X0.7048  Y0.8257  
G00 Z0.1000  
G00 X0.6924  Y1.4034  
G01 Z-0.0070 F10    
G01 X0.6908  Y1.4050  F20    
G01 X0.6924  Y1.4050  
G01 X0.6924  Y1.4034  
G00 Z0.1000  
G00 X0.5319  Y1.4643  
G01 Z-0.0070 F10    
G01 X0.5349  Y1.4643  F20    
G01 X0.5350  Y1.4643  
G01 X0.5384  Y1.4657  
G01 X0.5405  Y1.4679  
G01 X0.5405  Y1.4557  
G01 X0.5319  Y1.4643  
G00 Z0.1000  
G00 X0.5517  Y1.5110  
G01 Z-0.0070 F10    
G01 X0.5529  Y1.5110  F20    
G01 X0.5535  Y1.5113  
G01 X0.5542  Y1.5114  
G01 X0.5553  Y1.5120  
G01 X0.5564  Y1.5124  
G01 X0.5569  Y1.5129  
G01 X0.5575  Y1.5133  
G01 X0.5582  Y1.5143  
G01 X0.5585  Y1.5146  
G01 X0.5585  Y1.5043  
G01 X0.5581  Y1.5054  
G01 X0.5576  Y1.5059  
G01 X0.5572  Y1.5065  
G01 X0.5562  Y1.5072  
G01 X0.5554  Y1.5081  
G01 X0.5547  Y1.5083  
G01 X0.5512  Y1.5109  
G01 X0.5517  Y1.5110  
G00 Z0.1000  
G00 X0.5268  Y1.5052  
G01 Z-0.0070 F10    
G01 X0.5263  Y1.5052  F20    
G01 X0.5268  Y1.5056  
G01 X0.5272  Y1.5052  
G01 X0.5268  Y1.5052  
G00 Z0.1000  
G00 X0.5605  Y1.4967  
G01 Z-0.0070 F10    
G01 X0.5614  Y1.4963  F20    
G01 X0.5595  Y1.4944  
G01 X0.5595  Y1.4976  
G01 X0.5605  Y1.4967  
G00 Z0.1000  
G00 X0.5616  Y1.4657  
G01 Z-0.0070 F10    
G01 X0.5651  Y1.4643  F20    
G01 X0.5681  Y1.4643  
G01 X0.5595  Y1.4557  
G01 X0.5595  Y1.4679  
G01 X0.5616  Y1.4657  
G00 Z0.1000  
G00 X0.5816  Y1.3972  
G01 Z-0.0070 F10    
G01 X0.5802  Y1.3966  F20    
G01 X0.5775  Y1.3939  
G01 X0.5760  Y1.3904  
G01 X0.5760  Y1.3874  
G01 X0.5595  Y1.4039  
G01 X0.5595  Y1.4193  
G01 X0.5816  Y1.3972  
G00 Z0.1000  
G00 X0.5384  Y1.4093  
G01 Z-0.0070 F10    
G01 X0.5349  Y1.4107  F20    
G01 X0.5319  Y1.4107  
G01 X0.5405  Y1.4193  
G01 X0.5405  Y1.4071  
G01 X0.5384  Y1.4093  
G00 Z0.1000  
G00 X0.9191  Y1.2655  
G01 Z-0.0070 F10    
G01 X0.9809  Y1.2655  F20    
G01 X0.9825  Y1.2662  
G01 X0.9825  Y1.2651  
G01 X0.9839  Y1.2616  
G01 X0.9861  Y1.2595  
G01 X0.9139  Y1.2595  
G01 X0.9161  Y1.2616  
G01 X0.9175  Y1.2651  
G01 X0.9175  Y1.2662  
G01 X0.9191  Y1.2655  
G00 Z0.1000  
G00 X0.9683  Y1.2384  
G01 Z-0.0070 F10    
G01 X0.9669  Y1.2349  F20    
G01 X0.9669  Y1.2311  
G01 X0.9673  Y1.2301  
G01 X0.9674  Y1.2299  
G01 X0.9663  Y1.2306  
G01 X0.9601  Y1.2332  
G01 X0.9534  Y1.2345  
G01 X0.9466  Y1.2345  
G01 X0.9399  Y1.2332  
G01 X0.9337  Y1.2306  
G01 X0.9326  Y1.2299  
G01 X0.9327  Y1.2301  
G01 X0.9331  Y1.2311  
G01 X0.9331  Y1.2349  
G01 X0.9317  Y1.2384  
G01 X0.9295  Y1.2405  
G01 X0.9705  Y1.2405  
G01 X0.9683  Y1.2384  
G00 Z0.1000  
G00 X0.7105  Y0.5993  
G01 Z-0.0070 F10    
G01 X0.7105  Y0.6017  F20    
G01 X0.7098  Y0.6033  
G01 X0.7085  Y0.6046  
G01 X0.7069  Y0.6053  
G01 X0.6551  Y0.6053  
G01 X0.6535  Y0.6046  
G01 X0.6535  Y0.6061  
G01 X0.6533  Y0.6066  
G01 X0.6535  Y0.6064  
G01 X0.6551  Y0.6058  
G01 X0.7069  Y0.6058  
G01 X0.7085  Y0.6064  
G01 X0.7098  Y0.6077  
G01 X0.7105  Y0.6094  
G01 X0.7105  Y0.6111  
G01 X0.7126  Y0.6090  
G01 X0.7161  Y0.6075  
G01 X0.7191  Y0.6075  
G01 X0.7108  Y0.5993  
G01 X0.7105  Y0.5993  
G00 Z0.1000  
G00 X0.7479  Y0.6374  
G01 Z-0.0070 F10    
G01 X0.7479  Y0.6386  F20    
G01 X0.7490  Y0.6375  
G01 X0.7479  Y0.6363  
G01 X0.7479  Y0.6374  
G00 Z0.1000  
G00 X0.7105  Y0.5797  
G01 Z-0.0070 F10    
G01 X0.7105  Y0.5803  F20    
G01 X0.7110  Y0.5803  
G01 X0.7105  Y0.5797  
G00 Z0.1000  
G00 X0.4114  Y0.5950  
G01 Z-0.0070 F10    
G01 X0.4114  Y0.5934  F20    
G01 X0.4099  Y0.5934  
G01 X0.4114  Y0.5950  
G00 Z0.1000  
G00 X0.3540  Y0.5103  
G01 Z-0.0070 F10    
G01 X0.3532  Y0.5106  F20    
G01 X0.3540  Y0.5110  
G01 X0.3849  Y0.5110  
G01 X0.3852  Y0.5111  
G01 X0.3844  Y0.5103  
G01 X0.3540  Y0.5103  
G00 Z0.1000  
G00 X0.4680  Y0.5410  
G01 Z-0.0070 F10    
G01 X0.4696  Y0.5416  F20    
G01 X0.4696  Y0.5401  
G01 X0.4711  Y0.5366  
G01 X0.4732  Y0.5345  
G01 X0.4106  Y0.5345  
G01 X0.4103  Y0.5344  
G01 X0.4169  Y0.5410  
G01 X0.4680  Y0.5410  
G00 Z0.1000  
G00 X0.3541  Y0.5693  
G01 Z-0.0070 F10    
G01 X0.3532  Y0.5697  F20    
G01 X0.3541  Y0.5701  
G01 X0.3548  Y0.5708  
G01 X0.3549  Y0.5696  
G01 X0.3549  Y0.5686  
G01 X0.3541  Y0.5693  
G00 Z0.1000  
G00 X0.2504  Y0.6541  
G01 Z-0.0070 F10    
G01 X0.2500  Y0.6532  F20    
G01 X0.2496  Y0.6541  
G01 X0.2489  Y0.6548  
G01 X0.2501  Y0.6549  
G01 X0.2511  Y0.6549  
G01 X0.2504  Y0.6541  
G00 Z0.1000  
G00 X0.2701  Y0.6541  
G01 Z-0.0070 F10    
G01 X0.2697  Y0.6532  F20    
G01 X0.2693  Y0.6541  
G01 X0.2686  Y0.6548  
G01 X0.2698  Y0.6549  
G01 X0.2708  Y0.6549  
G01 X0.2701  Y0.6541  
G00 Z0.1000  
G00 X0.3541  Y0.5890  
G01 Z-0.0070 F10    
G01 X0.3532  Y0.5894  F20    
G01 X0.3541  Y0.5898  
G01 X0.3548  Y0.5905  
G01 X0.3549  Y0.5893  
G01 X0.3549  Y0.5883  
G01 X0.3541  Y0.5890  
G00 Z0.1000  
G00 X2.5581  Y0.6061  
G01 Z-0.0070 F10    
G01 X2.5595  Y0.6096  F20    
G01 X2.5595  Y0.6102  
G01 X2.5611  Y0.6095  
G01 X2.5655  Y0.6095  
G01 X2.5655  Y0.6040  
G01 X2.5559  Y0.6040  
G01 X2.5581  Y0.6061  
G00 Z0.1000  
G00 X2.5081  Y0.6061  
G01 Z-0.0070 F10    
G01 X2.5095  Y0.6096  F20    
G01 X2.5095  Y0.6102  
G01 X2.5111  Y0.6095  
G01 X2.5389  Y0.6095  
G01 X2.5405  Y0.6102  
G01 X2.5405  Y0.6096  
G01 X2.5419  Y0.6061  
G01 X2.5441  Y0.6040  
G01 X2.5059  Y0.6040  
G01 X2.5081  Y0.6061  
G00 Z0.1000  
G00 X2.4875  Y0.6095  
G01 Z-0.0070 F10    
G01 X2.4889  Y0.6095  F20    
G01 X2.4905  Y0.6102  
G01 X2.4905  Y0.6096  
G01 X2.4919  Y0.6061  
G01 X2.4941  Y0.6040  
G01 X2.4875  Y0.6040  
G01 X2.4875  Y0.6095  
G00 Z0.1000  
G00 X2.4609  Y0.5125  
G01 Z-0.0070 F10    
G01 X2.4625  Y0.5141  F20    
G01 X2.4625  Y0.5125  
G01 X2.4609  Y0.5125  
G00 Z0.1000  
G00 X2.2939  Y0.8545  
G01 Z-0.0070 F10    
G01 X2.2955  Y0.8561  F20    
G01 X2.2955  Y0.8545  
G01 X2.2939  Y0.8545  
G00 Z0.1000  
G00 X2.2455  Y1.2309  
G01 Z-0.0070 F10    
G01 X2.2434  Y1.2331  F20    
G01 X2.2399  Y1.2345  
G01 X2.2351  Y1.2345  
G01 X2.2316  Y1.2331  
G01 X2.2289  Y1.2304  
G01 X2.2275  Y1.2269  
G01 X2.2275  Y1.2263  
G01 X2.2259  Y1.2270  
G01 X2.2165  Y1.2270  
G01 X2.2165  Y1.2405  
G01 X2.2455  Y1.2405  
G01 X2.2455  Y1.2309  
G00 Z0.1000  
G00 X2.4581  Y0.6061  
G01 Z-0.0070 F10    
G01 X2.4595  Y0.6096  F20    
G01 X2.4595  Y0.6102  
G01 X2.4611  Y0.6095  
G01 X2.4625  Y0.6095  
G01 X2.4625  Y0.6040  
G01 X2.4559  Y0.6040  
G01 X2.4581  Y0.6061  
G00 Z0.1000  
G00 X2.4625  Y0.5694  
G01 Z-0.0070 F10    
G01 X2.4609  Y0.5710  F20    
G01 X2.4625  Y0.5710  
G01 X2.4625  Y0.5694  
G00 Z0.1000  
G00 X2.3471  Y0.7766  
G01 Z-0.0070 F10    
G01 X2.3436  Y0.7751  F20    
G01 X2.3415  Y0.7730  
G01 X2.3415  Y0.7852  
G01 X2.3501  Y0.7766  
G01 X2.3471  Y0.7766  
G00 Z0.1000  
G00 X2.4891  Y0.5710  
G01 Z-0.0070 F10    
G01 X2.4875  Y0.5694  F20    
G01 X2.4875  Y0.5710  
G01 X2.4891  Y0.5710  
G00 Z0.1000  
G00 X2.4891  Y0.5125  
G01 Z-0.0070 F10    
G01 X2.4875  Y0.5125  F20    
G01 X2.4875  Y0.5141  
G01 X2.4891  Y0.5125  
G00 Z0.1000  
G00 X1.8201  Y0.1364  
G01 Z-0.0070 F10    
G01 X1.8201  Y0.1380  F20    
G01 X1.8217  Y0.1380  
G01 X1.8201  Y0.1364  
G00 Z0.1000  
G00 X1.4096  Y0.3230  
G01 Z-0.0070 F10    
G01 X1.4096  Y0.3260  F20    
G01 X1.4081  Y0.3295  
G01 X1.4060  Y0.3316  
G01 X1.4076  Y0.3316  
G01 X1.4184  Y0.3424  
G01 X1.4184  Y0.3550  
G01 X1.4289  Y0.3655  
G01 X1.7644  Y0.3655  
G01 X1.7679  Y0.3669  
G01 X1.7706  Y0.3696  
G01 X1.8164  Y0.4155  
G01 X2.0269  Y0.4155  
G01 X2.0272  Y0.4156  
G01 X2.0211  Y0.4095  
G01 X1.8231  Y0.4095  
G01 X1.8196  Y0.4081  
G01 X1.7711  Y0.3595  
G01 X1.4481  Y0.3595  
G01 X1.4446  Y0.3581  
G01 X1.4419  Y0.3554  
G01 X1.4096  Y0.3230  
G00 Z0.1000  
G00 X2.5954  Y0.4869  
G01 Z-0.0070 F10    
G01 X2.5924  Y0.4869  F20    
G01 X2.5923  Y0.4869  
G01 X2.5889  Y0.4855  
G01 X2.5862  Y0.4828  
G01 X2.5862  Y0.4827  
G01 X2.5861  Y0.4829  
G01 X2.5848  Y0.4841  
G01 X2.5832  Y0.4848  
G01 X2.5656  Y0.4848  
G01 X2.5640  Y0.4841  
G01 X2.5627  Y0.4829  
G01 X2.5620  Y0.4812  
G01 X2.5620  Y0.4519  
G01 X2.5627  Y0.4502  
G01 X2.5640  Y0.4489  
G01 X2.5650  Y0.4485  
G01 X2.5654  Y0.4288  
G01 X2.5336  Y0.3970  
G01 X2.0356  Y0.3970  
G01 X2.0353  Y0.3969  
G01 X2.0414  Y0.4030  
G01 X2.3519  Y0.4030  
G01 X2.3554  Y0.4044  
G01 X2.3581  Y0.4071  
G01 X2.3825  Y0.4315  
G01 X2.3839  Y0.4350  
G01 X2.3839  Y0.4486  
G01 X2.3848  Y0.4489  
G01 X2.3861  Y0.4502  
G01 X2.3868  Y0.4519  
G01 X2.3868  Y0.4812  
G01 X2.3861  Y0.4829  
G01 X2.3858  Y0.4832  
G01 X2.3884  Y0.4843  
G01 X2.3905  Y0.4864  
G01 X2.3905  Y0.4356  
G01 X2.3919  Y0.4321  
G01 X2.4044  Y0.4196  
G01 X2.4071  Y0.4169  
G01 X2.4106  Y0.4155  
G01 X2.4519  Y0.4155  
G01 X2.4554  Y0.4169  
G01 X2.4825  Y0.4441  
G01 X2.4951  Y0.4441  
G01 X2.5059  Y0.4549  
G01 X2.5059  Y0.4701  
G01 X2.4951  Y0.4809  
G01 X2.4799  Y0.4809  
G01 X2.4691  Y0.4701  
G01 X2.4691  Y0.4575  
G01 X2.4461  Y0.4345  
G01 X2.4164  Y0.4345  
G01 X2.4095  Y0.4414  
G01 X2.4095  Y0.5155  
G01 X2.4104  Y0.5159  
G01 X2.4117  Y0.5171  
G01 X2.4124  Y0.5188  
G01 X2.4124  Y0.5481  
G01 X2.4117  Y0.5497  
G01 X2.4139  Y0.5497  
G01 X2.4132  Y0.5481  
G01 X2.4132  Y0.5188  
G01 X2.4139  Y0.5171  
G01 X2.4152  Y0.5159  
G01 X2.4168  Y0.5152  
G01 X2.4344  Y0.5152  
G01 X2.4360  Y0.5159  
G01 X2.4366  Y0.5165  
G01 X2.4374  Y0.5146  
G01 X2.4401  Y0.5119  
G01 X2.4433  Y0.5106  
G01 X2.4423  Y0.5100  
G01 X2.4400  Y0.5077  
G01 X2.4171  Y0.4848  
G01 X2.4168  Y0.4848  
G01 X2.4152  Y0.4841  
G01 X2.4139  Y0.4829  
G01 X2.4132  Y0.4812  
G01 X2.4132  Y0.4777  
G01 X2.4131  Y0.4772  
G01 X2.4131  Y0.4649  
G01 X2.4132  Y0.4644  
G01 X2.4132  Y0.4519  
G01 X2.4139  Y0.4502  
G01 X2.4152  Y0.4489  
G01 X2.4168  Y0.4483  
G01 X2.4344  Y0.4483  
G01 X2.4360  Y0.4489  
G01 X2.4373  Y0.4502  
G01 X2.4380  Y0.4519  
G01 X2.4380  Y0.4644  
G01 X2.4381  Y0.4649  
G01 X2.4381  Y0.4704  
G01 X2.4552  Y0.4875  
G01 X2.5948  Y0.4875  
G01 X2.5954  Y0.4869  
G00 Z0.1000  
G00 X2.1258  Y0.3759  
G01 Z-0.0070 F10    
G01 X2.1258  Y0.3759  F20    
G01 X2.1256  Y0.3753  
G01 X2.1244  Y0.3724  
G01 X2.1244  Y0.3686  
G01 X2.1248  Y0.3675  
G01 X2.0767  Y0.3675  
G01 X2.0772  Y0.3686  
G01 X2.0772  Y0.3724  
G01 X2.0760  Y0.3752  
G01 X2.0758  Y0.3759  
G01 X2.0736  Y0.3780  
G01 X2.1279  Y0.3780  
G01 X2.1258  Y0.3759  
G00 Z0.1000  
G00 X1.4769  Y0.3345  
G01 Z-0.0070 F10    
G01 X1.4731  Y0.3345  F20    
G01 X1.4696  Y0.3331  
G01 X1.4550  Y0.3184  
G01 X1.4424  Y0.3184  
G01 X1.4316  Y0.3076  
G01 X1.4316  Y0.2933  
G01 X1.4314  Y0.2934  
G01 X1.4276  Y0.2934  
G01 X1.4241  Y0.2919  
G01 X1.4220  Y0.2898  
G01 X1.4220  Y0.3086  
G01 X1.4539  Y0.3405  
G01 X1.7769  Y0.3405  
G01 X1.7804  Y0.3419  
G01 X1.7831  Y0.3446  
G01 X1.8289  Y0.3905  
G01 X2.0269  Y0.3905  
G01 X2.0272  Y0.3906  
G01 X2.0211  Y0.3845  
G01 X1.8356  Y0.3845  
G01 X1.8321  Y0.3831  
G01 X1.7836  Y0.3345  
G01 X1.4769  Y0.3345  
G00 Z0.1000  
G00 X1.9792  Y0.3634  
G01 Z-0.0070 F10    
G01 X1.9792  Y0.3634  F20    
G01 X1.9790  Y0.3628  
G01 X1.9778  Y0.3599  
G01 X1.9778  Y0.3568  
G01 X1.9741  Y0.3592  
G01 X1.9696  Y0.3611  
G01 X1.9649  Y0.3620  
G01 X1.9101  Y0.3620  
G01 X1.9054  Y0.3611  
G01 X1.9009  Y0.3592  
G01 X1.8972  Y0.3568  
G01 X1.8972  Y0.3599  
G01 X1.8961  Y0.3627  
G01 X1.8958  Y0.3634  
G01 X1.8937  Y0.3655  
G01 X1.9813  Y0.3655  
G01 X1.9792  Y0.3634  
G00 Z0.1000  
G00 X1.4653  Y0.1580  
G01 Z-0.0070 F10    
G01 X1.4607  Y0.1565  F20    
G01 X1.4618  Y0.1593  
G01 X1.4618  Y0.1622  
G01 X1.4655  Y0.1586  
G01 X1.4655  Y0.1580  
G01 X1.4653  Y0.1580  
G00 Z0.1000  
G00 X1.3492  Y0.2237  
G01 Z-0.0070 F10    
G01 X1.3507  Y0.2221  F20    
G01 X1.3492  Y0.2221  
G01 X1.3492  Y0.2237  
G00 Z0.1000  
G00 X1.3492  Y0.2015  
G01 Z-0.0070 F10    
G01 X1.3492  Y0.2031  F20    
G01 X1.3507  Y0.2031  
G01 X1.3492  Y0.2015  
G00 Z0.1000  
G00 X1.4192  Y0.2315  
G01 Z-0.0070 F10    
G01 X1.4192  Y0.2277  F20    
G01 X1.4193  Y0.2276  
G01 X1.4207  Y0.2242  
G01 X1.4228  Y0.2221  
G01 X1.4022  Y0.2221  
G01 X1.4043  Y0.2242  
G01 X1.4058  Y0.2277  
G01 X1.4058  Y0.2315  
G01 X1.4057  Y0.2316  
G01 X1.4193  Y0.2316  
G01 X1.4192  Y0.2315  
G00 Z0.1000  
G00 X2.0440  Y0.4306  
G01 Z-0.0070 F10    
G01 X2.0440  Y0.4276  F20    
G01 X2.0455  Y0.4241  
G01 X2.0476  Y0.4220  
G01 X2.0356  Y0.4220  
G01 X2.0353  Y0.4219  
G01 X2.0440  Y0.4306  
G00 Z0.1000  
G00 X2.5896  Y0.5159  
G01 Z-0.0070 F10    
G01 X2.5912  Y0.5152  F20    
G01 X2.6088  Y0.5152  
G01 X2.6104  Y0.5159  
G01 X2.6117  Y0.5171  
G01 X2.6124  Y0.5188  
G01 X2.6124  Y0.5481  
G01 X2.6117  Y0.5498  
G01 X2.6104  Y0.5511  
G01 X2.6095  Y0.5514  
G01 X2.6095  Y0.5533  
G01 X2.6116  Y0.5512  
G01 X2.6142  Y0.5501  
G01 X2.6139  Y0.5498  
G01 X2.6132  Y0.5481  
G01 X2.6132  Y0.5188  
G01 X2.6139  Y0.5171  
G01 X2.6152  Y0.5159  
G01 X2.6154  Y0.5158  
G01 X2.6152  Y0.5157  
G01 X2.6125  Y0.5131  
G01 X2.6111  Y0.5096  
G01 X2.6111  Y0.5066  
G01 X2.6100  Y0.5077  
G01 X2.6077  Y0.5100  
G01 X2.6048  Y0.5116  
G01 X2.6016  Y0.5125  
G01 X2.5861  Y0.5125  
G01 X2.5882  Y0.5146  
G01 X2.5890  Y0.5165  
G01 X2.5896  Y0.5159  
G00 Z0.1000  
G00 X2.5884  Y0.5729  
G01 Z-0.0070 F10    
G01 X2.5851  Y0.5743  F20    
G01 X2.5851  Y0.5743  
G01 X2.5882  Y0.5774  
G01 X2.5904  Y0.5811  
G01 X2.5915  Y0.5853  
G01 X2.5915  Y0.5897  
G01 X2.5904  Y0.5939  
G01 X2.5882  Y0.5976  
G01 X2.5851  Y0.6007  
G01 X2.5845  Y0.6011  
G01 X2.5845  Y0.6095  
G01 X2.5889  Y0.6095  
G01 X2.5905  Y0.6102  
G01 X2.5918  Y0.6115  
G01 X2.5925  Y0.6131  
G01 X2.5925  Y0.6307  
G01 X2.5946  Y0.6286  
G01 X2.5981  Y0.6271  
G01 X2.6019  Y0.6271  
G01 X2.6054  Y0.6286  
G01 X2.6066  Y0.6298  
G01 X2.6066  Y0.6174  
G01 X2.6155  Y0.6085  
G01 X2.6155  Y0.6039  
G01 X2.5946  Y0.5831  
G01 X2.5919  Y0.5804  
G01 X2.5905  Y0.5769  
G01 X2.5905  Y0.5708  
G01 X2.5884  Y0.5729  
G00 Z0.1000  
G00 X0.7493  Y0.4575  
G01 Z-0.0070 F10    
G01 X0.7508  Y0.4559  F20    
G01 X0.7493  Y0.4559  
G01 X0.7493  Y0.4575  
G00 Z0.1000  
G00 X0.7297  Y0.5015  
G01 Z-0.0070 F10    
G01 X0.7303  Y0.5015  F20    
G01 X0.7303  Y0.5010  
G01 X0.7297  Y0.5015  
G00 Z0.1000  
G00 X0.7508  Y0.5015  
G01 Z-0.0070 F10    
G01 X0.7493  Y0.4999  F20    
G01 X0.7493  Y0.5015  
G01 X0.7508  Y0.5015  
G00 Z0.1000  
G00 X0.7564  Y0.5585  
G01 Z-0.0070 F10    
G01 X0.7558  Y0.5569  F20    
G01 X0.7558  Y0.5051  
G01 X0.7564  Y0.5035  
G01 X0.7549  Y0.5035  
G01 X0.7545  Y0.5033  
G01 X0.7546  Y0.5035  
G01 X0.7553  Y0.5051  
G01 X0.7553  Y0.5569  
G01 X0.7546  Y0.5585  
G01 X0.7561  Y0.5585  
G01 X0.7566  Y0.5587  
G01 X0.7564  Y0.5585  
G00 Z0.1000  
G00 X0.7602  Y0.5605  
G01 Z-0.0070 F10    
G01 X0.7618  Y0.5621  F20    
G01 X0.7618  Y0.5605  
G01 X0.7602  Y0.5605  
G00 Z0.1000  
G00 X0.7815  Y0.5605  
G01 Z-0.0070 F10    
G01 X0.7808  Y0.5605  F20    
G01 X0.7808  Y0.5622  
G01 X0.7815  Y0.5605  
G00 Z0.1000  
G00 X1.0945  Y0.2552  
G01 Z-0.0070 F10    
G01 X1.0964  Y0.2571  F20    
G01 X1.0974  Y0.2596  
G01 X1.0978  Y0.2606  
G01 X1.0978  Y0.2644  
G01 X1.0964  Y0.2679  
G01 X1.0945  Y0.2698  
G01 X1.1555  Y0.2698  
G01 X1.1536  Y0.2679  
G01 X1.1522  Y0.2644  
G01 X1.1522  Y0.2606  
G01 X1.1526  Y0.2596  
G01 X1.1536  Y0.2571  
G01 X1.1555  Y0.2552  
G01 X1.0945  Y0.2552  
G00 Z0.1000  
G00 X0.9895  Y0.6953  
G01 Z-0.0070 F10    
G01 X0.9895  Y0.6938  F20    
G01 X0.9879  Y0.6938  
G01 X0.9895  Y0.6953  
G00 Z0.1000  
G00 X0.9895  Y0.6732  
G01 Z-0.0070 F10    
G01 X0.9879  Y0.6748  F20    
G01 X0.9895  Y0.6748  
G01 X0.9895  Y0.6732  
G00 Z0.1000  
G00 X0.9931  Y0.7317  
G01 Z-0.0070 F10    
G01 X1.0449  Y0.7317  F20    
G01 X1.0465  Y0.7324  
G01 X1.0465  Y0.7309  
G01 X1.0467  Y0.7304  
G01 X1.0465  Y0.7306  
G01 X1.0449  Y0.7312  
G01 X0.9931  Y0.7312  
G01 X0.9915  Y0.7306  
G01 X0.9915  Y0.7324  
G01 X0.9931  Y0.7317  
G00 Z0.1000  
G00 X0.9931  Y0.7632  
G01 Z-0.0070 F10    
G01 X1.0449  Y0.7632  F20    
G01 X1.0465  Y0.7639  
G01 X1.0467  Y0.7641  
G01 X1.0465  Y0.7636  
G01 X1.0465  Y0.7621  
G01 X1.0449  Y0.7627  
G01 X0.9931  Y0.7627  
G01 X0.9915  Y0.7621  
G01 X0.9915  Y0.7639  
G01 X0.9931  Y0.7632  
G00 Z0.1000  
G00 X1.0485  Y0.7677  
G01 Z-0.0070 F10    
G01 X1.0485  Y0.7692  F20    
G01 X1.0501  Y0.7692  
G01 X1.0485  Y0.7677  
G00 Z0.1000  
G00 X0.9931  Y0.7947  
G01 Z-0.0070 F10    
G01 X1.0449  Y0.7947  F20    
G01 X1.0465  Y0.7954  
G01 X1.0478  Y0.7967  
G01 X1.0485  Y0.7983  
G01 X1.0485  Y0.8007  
G01 X1.1608  Y0.8007  
G01 X1.1691  Y0.7925  
G01 X1.1691  Y0.7799  
G01 X1.1799  Y0.7691  
G01 X1.1951  Y0.7691  
G01 X1.2059  Y0.7799  
G01 X1.2059  Y0.7923  
G01 X1.2069  Y0.7913  
G01 X1.2071  Y0.7911  
G01 X1.2106  Y0.7896  
G01 X1.2136  Y0.7896  
G01 X1.2066  Y0.7826  
G01 X1.2066  Y0.7700  
G01 X1.1961  Y0.7595  
G01 X1.1664  Y0.7595  
G01 X1.1418  Y0.7841  
G01 X1.1391  Y0.7868  
G01 X1.1356  Y0.7882  
G01 X1.0485  Y0.7882  
G01 X1.0485  Y0.7906  
G01 X1.0478  Y0.7923  
G01 X1.0465  Y0.7936  
G01 X1.0449  Y0.7942  
G01 X0.9931  Y0.7942  
G01 X0.9915  Y0.7936  
G01 X0.9915  Y0.7954  
G01 X0.9931  Y0.7947  
G00 Z0.1000  
G00 X1.0485  Y0.8203  
G01 Z-0.0070 F10    
G01 X1.0490  Y0.8197  F20    
G01 X1.0485  Y0.8197  
G01 X1.0485  Y0.8203  
G00 Z0.1000  
G00 X0.9757  Y0.8550  
G01 Z-0.0070 F10    
G01 X0.9757  Y0.8566  F20    
G01 X0.9773  Y0.8566  
G01 X0.9757  Y0.8550  
G00 Z0.1000  
G00 X0.7602  Y0.8985  
G01 Z-0.0070 F10    
G01 X0.7618  Y0.9001  F20    
G01 X0.7618  Y0.8985  
G01 X0.7602  Y0.8985  
G00 Z0.1000  
G00 X0.7823  Y0.8985  
G01 Z-0.0070 F10    
G01 X0.7808  Y0.8985  F20    
G01 X0.7808  Y0.9001  
G01 X0.7823  Y0.8985  
G00 Z0.1000  
G00 X0.8486  Y1.0441  
G01 Z-0.0070 F10    
G01 X0.8470  Y1.0425  F20    
G01 X0.8470  Y1.0441  
G01 X0.8486  Y1.0441  
G00 Z0.1000  
G00 X0.3175  Y0.4974  
G01 Z-0.0070 F10    
G01 X0.3175  Y0.5311  F20    
G01 X0.3188  Y0.5311  
G01 X0.3196  Y0.5303  
G01 X0.3231  Y0.5289  
G01 X0.3259  Y0.5289  
G01 X0.3252  Y0.5282  
G01 X0.3242  Y0.5259  
G01 X0.3242  Y0.5151  
G01 X0.3252  Y0.5128  
G01 X0.3270  Y0.5110  
G01 X0.3279  Y0.5106  
G01 X0.3270  Y0.5102  
G01 X0.3252  Y0.5085  
G01 X0.3242  Y0.5062  
G01 X0.3242  Y0.4954  
G01 X0.3252  Y0.4931  
G01 X0.3263  Y0.4920  
G01 X0.3237  Y0.4909  
G01 X0.3211  Y0.4883  
G01 X0.3196  Y0.4848  
G01 X0.3196  Y0.4810  
G01 X0.3200  Y0.4800  
G01 X0.3211  Y0.4775  
G01 X0.3228  Y0.4758  
G01 X0.3135  Y0.4758  
G01 X0.3112  Y0.4748  
G01 X0.3094  Y0.4730  
G01 X0.3091  Y0.4721  
G01 X0.3087  Y0.4730  
G01 X0.3069  Y0.4748  
G01 X0.3046  Y0.4758  
G01 X0.2938  Y0.4758  
G01 X0.2915  Y0.4748  
G01 X0.2898  Y0.4730  
G01 X0.2894  Y0.4721  
G01 X0.2890  Y0.4730  
G01 X0.2872  Y0.4748  
G01 X0.2849  Y0.4758  
G01 X0.2741  Y0.4758  
G01 X0.2718  Y0.4748  
G01 X0.2701  Y0.4730  
G01 X0.2697  Y0.4721  
G01 X0.2693  Y0.4730  
G01 X0.2675  Y0.4748  
G01 X0.2652  Y0.4758  
G01 X0.2545  Y0.4758  
G01 X0.2522  Y0.4748  
G01 X0.2504  Y0.4730  
G01 X0.2500  Y0.4721  
G01 X0.2496  Y0.4730  
G01 X0.2478  Y0.4748  
G01 X0.2455  Y0.4758  
G01 X0.2348  Y0.4758  
G01 X0.2325  Y0.4748  
G01 X0.2307  Y0.4730  
G01 X0.2303  Y0.4721  
G01 X0.2299  Y0.4730  
G01 X0.2282  Y0.4748  
G01 X0.2259  Y0.4758  
G01 X0.2151  Y0.4758  
G01 X0.2128  Y0.4748  
G01 X0.2110  Y0.4730  
G01 X0.2106  Y0.4721  
G01 X0.2102  Y0.4730  
G01 X0.2085  Y0.4748  
G01 X0.2062  Y0.4758  
G01 X0.1954  Y0.4758  
G01 X0.1931  Y0.4748  
G01 X0.1913  Y0.4730  
G01 X0.1909  Y0.4721  
G01 X0.1906  Y0.4730  
G01 X0.1888  Y0.4748  
G01 X0.1865  Y0.4758  
G01 X0.1758  Y0.4758  
G01 X0.1758  Y0.4865  
G01 X0.1748  Y0.4888  
G01 X0.1730  Y0.4906  
G01 X0.1721  Y0.4909  
G01 X0.1730  Y0.4913  
G01 X0.1748  Y0.4931  
G01 X0.1758  Y0.4954  
G01 X0.1758  Y0.5062  
G01 X0.1748  Y0.5085  
G01 X0.1730  Y0.5102  
G01 X0.1721  Y0.5106  
G01 X0.1730  Y0.5110  
G01 X0.1748  Y0.5128  
G01 X0.1758  Y0.5151  
G01 X0.1758  Y0.5259  
G01 X0.1748  Y0.5282  
G01 X0.1730  Y0.5299  
G01 X0.1721  Y0.5303  
G01 X0.1730  Y0.5307  
G01 X0.1748  Y0.5325  
G01 X0.1758  Y0.5348  
G01 X0.1758  Y0.5455  
G01 X0.1748  Y0.5478  
G01 X0.1741  Y0.5486  
G01 X0.1769  Y0.5486  
G01 X0.1801  Y0.5499  
G01 X0.1825  Y0.5499  
G01 X0.1825  Y0.4974  
G01 X0.1837  Y0.4930  
G01 X0.1859  Y0.4891  
G01 X0.1891  Y0.4859  
G01 X0.1930  Y0.4837  
G01 X0.1974  Y0.4825  
G01 X0.3026  Y0.4825  
G01 X0.3070  Y0.4837  
G01 X0.3109  Y0.4859  
G01 X0.3141  Y0.4891  
G01 X0.3163  Y0.4930  
G01 X0.3175  Y0.4974  
G00 Z0.1000  
G00 X0.1748  Y0.5718  
G01 Z-0.0070 F10    
G01 X0.1758  Y0.5741  F20    
G01 X0.1758  Y0.5849  
G01 X0.1748  Y0.5872  
G01 X0.1730  Y0.5890  
G01 X0.1721  Y0.5894  
G01 X0.1730  Y0.5898  
G01 X0.1748  Y0.5915  
G01 X0.1758  Y0.5938  
G01 X0.1758  Y0.6046  
G01 X0.1748  Y0.6069  
G01 X0.1730  Y0.6087  
G01 X0.1721  Y0.6091  
G01 X0.1730  Y0.6094  
G01 X0.1748  Y0.6112  
G01 X0.1758  Y0.6135  
G01 X0.1758  Y0.6242  
G01 X0.1865  Y0.6242  
G01 X0.1888  Y0.6252  
G01 X0.1906  Y0.6270  
G01 X0.1909  Y0.6279  
G01 X0.1913  Y0.6270  
G01 X0.1931  Y0.6252  
G01 X0.1954  Y0.6242  
G01 X0.2062  Y0.6242  
G01 X0.2085  Y0.6252  
G01 X0.2102  Y0.6270  
G01 X0.2106  Y0.6279  
G01 X0.2110  Y0.6270  
G01 X0.2128  Y0.6252  
G01 X0.2151  Y0.6242  
G01 X0.2259  Y0.6242  
G01 X0.2282  Y0.6252  
G01 X0.2299  Y0.6270  
G01 X0.2303  Y0.6279  
G01 X0.2307  Y0.6270  
G01 X0.2325  Y0.6252  
G01 X0.2348  Y0.6242  
G01 X0.2455  Y0.6242  
G01 X0.2478  Y0.6252  
G01 X0.2496  Y0.6270  
G01 X0.2500  Y0.6279  
G01 X0.2504  Y0.6270  
G01 X0.2522  Y0.6252  
G01 X0.2545  Y0.6242  
G01 X0.2652  Y0.6242  
G01 X0.2675  Y0.6252  
G01 X0.2693  Y0.6270  
G01 X0.2697  Y0.6279  
G01 X0.2701  Y0.6270  
G01 X0.2718  Y0.6252  
G01 X0.2741  Y0.6242  
G01 X0.2849  Y0.6242  
G01 X0.2872  Y0.6252  
G01 X0.2879  Y0.6259  
G01 X0.2879  Y0.6231  
G01 X0.2894  Y0.6196  
G01 X0.2915  Y0.6175  
G01 X0.1974  Y0.6175  
G01 X0.1930  Y0.6163  
G01 X0.1891  Y0.6141  
G01 X0.1859  Y0.6109  
G01 X0.1837  Y0.6070  
G01 X0.1825  Y0.6026  
G01 X0.1825  Y0.5689  
G01 X0.1812  Y0.5689  
G01 X0.1804  Y0.5697  
G01 X0.1769  Y0.5711  
G01 X0.1741  Y0.5711  
G01 X0.1748  Y0.5718  
G00 Z0.1000  
G00 X0.3112  Y0.6252  
G01 Z-0.0070 F10    
G01 X0.3135  Y0.6242  F20    
G01 X0.3228  Y0.6242  
G01 X0.3211  Y0.6225  
G01 X0.3200  Y0.6201  
G01 X0.3196  Y0.6190  
G01 X0.3196  Y0.6152  
G01 X0.3211  Y0.6117  
G01 X0.3237  Y0.6091  
G01 X0.3262  Y0.6081  
G01 X0.3263  Y0.6080  
G01 X0.3252  Y0.6069  
G01 X0.3242  Y0.6046  
G01 X0.3242  Y0.5938  
G01 X0.3252  Y0.5915  
G01 X0.3270  Y0.5898  
G01 X0.3279  Y0.5894  
G01 X0.3270  Y0.5890  
G01 X0.3252  Y0.5872  
G01 X0.3242  Y0.5849  
G01 X0.3242  Y0.5741  
G01 X0.3252  Y0.5718  
G01 X0.3270  Y0.5701  
G01 X0.3279  Y0.5697  
G01 X0.3270  Y0.5693  
G01 X0.3252  Y0.5675  
G01 X0.3242  Y0.5652  
G01 X0.3242  Y0.5545  
G01 X0.3252  Y0.5522  
G01 X0.3259  Y0.5514  
G01 X0.3231  Y0.5514  
G01 X0.3199  Y0.5501  
G01 X0.3175  Y0.5501  
G01 X0.3175  Y0.6026  
G01 X0.3163  Y0.6070  
G01 X0.3141  Y0.6109  
G01 X0.3109  Y0.6141  
G01 X0.3070  Y0.6163  
G01 X0.3057  Y0.6167  
G01 X0.3064  Y0.6169  
G01 X0.3090  Y0.6196  
G01 X0.3105  Y0.6231  
G01 X0.3105  Y0.6259  
G01 X0.3112  Y0.6252  
G00 Z0.1000  
G00 X1.2011  Y0.9645  
G01 Z-0.0070 F10    
G01 X1.2000  Y0.9634  F20    
G01 X1.1989  Y0.9645  
G01 X1.2011  Y0.9645  
G00 Z0.1000  
G00 X1.3366  Y1.1343  
G01 Z-0.0070 F10    
G01 X1.3392  Y1.1332  F20    
G01 X1.3389  Y1.1329  
G01 X1.3382  Y1.1312  
G01 X1.3382  Y1.1019  
G01 X1.3389  Y1.1002  
G01 X1.3392  Y1.0999  
G01 X1.3366  Y1.0988  
G01 X1.3345  Y1.0967  
G01 X1.3345  Y1.1364  
G01 X1.3366  Y1.1343  
G00 Z0.1000  
G00 X1.3354  Y1.1659  
G01 Z-0.0070 F10    
G01 X1.3367  Y1.1671  F20    
G01 X1.3374  Y1.1688  
G01 X1.3374  Y1.1981  
G01 X1.3367  Y1.1997  
G01 X1.3389  Y1.1997  
G01 X1.3382  Y1.1981  
G01 X1.3382  Y1.1688  
G01 X1.3389  Y1.1671  
G01 X1.3392  Y1.1668  
G01 X1.3366  Y1.1657  
G01 X1.3345  Y1.1636  
G01 X1.3345  Y1.1655  
G01 X1.3354  Y1.1659  
G00 Z0.1000  
G00 X1.7903  Y0.9389  
G01 Z-0.0070 F10    
G01 X1.7887  Y0.9405  F20    
G01 X1.7903  Y0.9405  
G01 X1.7903  Y0.9389  
G00 Z0.1000  
G00 X1.8366  Y1.1343  
G01 Z-0.0070 F10    
G01 X1.8392  Y1.1332  F20    
G01 X1.8389  Y1.1329  
G01 X1.8382  Y1.1312  
G01 X1.8382  Y1.1019  
G01 X1.8389  Y1.1002  
G01 X1.8392  Y1.0999  
G01 X1.8366  Y1.0988  
G01 X1.8345  Y1.0967  
G01 X1.8345  Y1.1364  
G01 X1.8366  Y1.1343  
G00 Z0.1000  
G00 X1.8354  Y1.1659  
G01 Z-0.0070 F10    
G01 X1.8367  Y1.1671  F20    
G01 X1.8374  Y1.1688  
G01 X1.8374  Y1.1981  
G01 X1.8367  Y1.1997  
G01 X1.8389  Y1.1997  
G01 X1.8382  Y1.1981  
G01 X1.8382  Y1.1688  
G01 X1.8389  Y1.1671  
G01 X1.8392  Y1.1668  
G01 X1.8366  Y1.1657  
G01 X1.8345  Y1.1636  
G01 X1.8345  Y1.1655  
G01 X1.8354  Y1.1659  
G00 Z0.1000  
G00 X1.8089  Y1.0986  
G01 Z-0.0070 F10    
G01 X1.8098  Y1.0989  F20    
G01 X1.8111  Y1.1002  
G01 X1.8118  Y1.1019  
G01 X1.8118  Y1.1312  
G01 X1.8111  Y1.1329  
G01 X1.8108  Y1.1332  
G01 X1.8134  Y1.1343  
G01 X1.8155  Y1.1364  
G01 X1.8155  Y1.0231  
G01 X1.8169  Y1.0196  
G01 X1.8332  Y1.0033  
G01 X1.8332  Y0.9795  
G01 X1.8293  Y0.9795  
G01 X1.8277  Y0.9788  
G01 X1.8264  Y0.9775  
G01 X1.8257  Y0.9759  
G01 X1.8257  Y0.9241  
G01 X1.8263  Y0.9227  
G01 X1.8250  Y0.9227  
G01 X1.8237  Y0.9227  
G01 X1.8243  Y0.9241  
G01 X1.8243  Y0.9759  
G01 X1.8236  Y0.9775  
G01 X1.8223  Y0.9788  
G01 X1.8207  Y0.9795  
G01 X1.7939  Y0.9795  
G01 X1.7922  Y0.9788  
G01 X1.7910  Y0.9775  
G01 X1.7903  Y0.9759  
G01 X1.7903  Y0.9595  
G01 X1.7229  Y0.9595  
G01 X1.8075  Y1.0440  
G01 X1.8089  Y1.0475  
G01 X1.8089  Y1.0513  
G01 X1.8089  Y1.0986  
G00 Z0.1000  
G00 X1.8585  Y1.0155  
G01 Z-0.0070 F10    
G01 X1.8608  Y1.0131  F20    
G01 X1.8578  Y1.0131  
G01 X1.8543  Y1.0117  
G01 X1.8521  Y1.0095  
G01 X1.8508  Y1.0127  
G01 X1.8479  Y1.0155  
G01 X1.8585  Y1.0155  
G00 Z0.1000  
G00 X1.8538  Y0.9795  
G01 Z-0.0070 F10    
G01 X1.8522  Y0.9795  F20    
G01 X1.8522  Y0.9811  
G01 X1.8538  Y0.9795  
G00 Z0.1000  
G00 X1.8345  Y1.0361  
G01 Z-0.0070 F10    
G01 X1.8361  Y1.0345  F20    
G01 X1.8345  Y1.0345  
G01 X1.8345  Y1.0361  
G00 Z0.1000  
G00 X1.2939  Y0.9116  
G01 Z-0.0070 F10    
G01 X1.2939  Y0.9116  F20    
G01 X1.2941  Y0.9122  
G01 X1.2953  Y0.9151  
G01 X1.2953  Y0.9189  
G01 X1.2946  Y0.9205  
G01 X1.3207  Y0.9205  
G01 X1.3223  Y0.9212  
G01 X1.3236  Y0.9225  
G01 X1.3243  Y0.9241  
G01 X1.3243  Y0.9759  
G01 X1.3236  Y0.9775  
G01 X1.3223  Y0.9788  
G01 X1.3207  Y0.9795  
G01 X1.2939  Y0.9795  
G01 X1.2922  Y0.9788  
G01 X1.2910  Y0.9775  
G01 X1.2903  Y0.9759  
G01 X1.2903  Y0.9595  
G01 X1.2229  Y0.9595  
G01 X1.3075  Y1.0440  
G01 X1.3089  Y1.0475  
G01 X1.3089  Y1.0986  
G01 X1.3098  Y1.0989  
G01 X1.3111  Y1.1002  
G01 X1.3118  Y1.1019  
G01 X1.3118  Y1.1312  
G01 X1.3111  Y1.1329  
G01 X1.3108  Y1.1332  
G01 X1.3134  Y1.1343  
G01 X1.3155  Y1.1364  
G01 X1.3155  Y1.0231  
G01 X1.3169  Y1.0196  
G01 X1.3332  Y1.0033  
G01 X1.3332  Y0.9795  
G01 X1.3293  Y0.9795  
G01 X1.3277  Y0.9788  
G01 X1.3264  Y0.9775  
G01 X1.3257  Y0.9759  
G01 X1.3257  Y0.9241  
G01 X1.3264  Y0.9225  
G01 X1.3277  Y0.9212  
G01 X1.3293  Y0.9205  
G01 X1.3554  Y0.9205  
G01 X1.3547  Y0.9189  
G01 X1.3547  Y0.9151  
G01 X1.3559  Y0.9123  
G01 X1.3561  Y0.9116  
G01 X1.3583  Y0.9095  
G01 X1.2917  Y0.9095  
G01 X1.2939  Y0.9116  
G00 Z0.1000  
G00 X1.5866  Y1.1343  
G01 Z-0.0070 F10    
G01 X1.5892  Y1.1332  F20    
G01 X1.5889  Y1.1329  
G01 X1.5882  Y1.1312  
G01 X1.5882  Y1.1019  
G01 X1.5889  Y1.1002  
G01 X1.5892  Y1.0999  
G01 X1.5866  Y1.0988  
G01 X1.5845  Y1.0967  
G01 X1.5845  Y1.1364  
G01 X1.5866  Y1.1343  
G00 Z0.1000  
G00 X1.5854  Y1.1659  
G01 Z-0.0070 F10    
G01 X1.5867  Y1.1671  F20    
G01 X1.5874  Y1.1688  
G01 X1.5874  Y1.1981  
G01 X1.5867  Y1.1997  
G01 X1.5889  Y1.1997  
G01 X1.5882  Y1.1981  
G01 X1.5882  Y1.1688  
G01 X1.5889  Y1.1671  
G01 X1.5892  Y1.1668  
G01 X1.5866  Y1.1657  
G01 X1.5845  Y1.1636  
G01 X1.5845  Y1.1655  
G01 X1.5854  Y1.1659  
G00 Z0.1000  
G00 X1.5589  Y1.0986  
G01 Z-0.0070 F10    
G01 X1.5598  Y1.0989  F20    
G01 X1.5611  Y1.1002  
G01 X1.5618  Y1.1019  
G01 X1.5618  Y1.1312  
G01 X1.5611  Y1.1329  
G01 X1.5608  Y1.1332  
G01 X1.5634  Y1.1343  
G01 X1.5655  Y1.1364  
G01 X1.5655  Y1.0231  
G01 X1.5669  Y1.0196  
G01 X1.5832  Y1.0033  
G01 X1.5832  Y0.9795  
G01 X1.5793  Y0.9795  
G01 X1.5777  Y0.9788  
G01 X1.5764  Y0.9775  
G01 X1.5757  Y0.9759  
G01 X1.5757  Y0.9241  
G01 X1.5763  Y0.9227  
G01 X1.5750  Y0.9227  
G01 X1.5737  Y0.9227  
G01 X1.5743  Y0.9241  
G01 X1.5743  Y0.9759  
G01 X1.5736  Y0.9775  
G01 X1.5723  Y0.9788  
G01 X1.5707  Y0.9795  
G01 X1.5439  Y0.9795  
G01 X1.5422  Y0.9788  
G01 X1.5410  Y0.9775  
G01 X1.5403  Y0.9759  
G01 X1.5403  Y0.9595  
G01 X1.4729  Y0.9595  
G01 X1.5575  Y1.0440  
G01 X1.5589  Y1.0475  
G01 X1.5589  Y1.0513  
G01 X1.5589  Y1.0986  
G00 Z0.1000  
G00 X1.6085  Y1.0155  
G01 Z-0.0070 F10    
G01 X1.6108  Y1.0131  F20    
G01 X1.6078  Y1.0131  
G01 X1.6043  Y1.0117  
G01 X1.6021  Y1.0095  
G01 X1.6008  Y1.0127  
G01 X1.5979  Y1.0155  
G01 X1.6085  Y1.0155  
G00 Z0.1000  
G00 X1.6038  Y0.9795  
G01 Z-0.0070 F10    
G01 X1.6022  Y0.9795  F20    
G01 X1.6022  Y0.9811  
G01 X1.6038  Y0.9795  
G00 Z0.1000  
G00 X1.5845  Y1.0361  
G01 Z-0.0070 F10    
G01 X1.5861  Y1.0345  F20    
G01 X1.5845  Y1.0345  
G01 X1.5845  Y1.0361  
G00 Z0.1000  
G00 X1.5403  Y0.9389  
G01 Z-0.0070 F10    
G01 X1.5387  Y0.9405  F20    
G01 X1.5403  Y0.9405  
G01 X1.5403  Y0.9389  
G00 Z0.1000  
G00 X1.3585  Y1.0155  
G01 Z-0.0070 F10    
G01 X1.3608  Y1.0131  F20    
G01 X1.3578  Y1.0131  
G01 X1.3543  Y1.0117  
G01 X1.3521  Y1.0095  
G01 X1.3508  Y1.0127  
G01 X1.3479  Y1.0155  
G01 X1.3585  Y1.0155  
G00 Z0.1000  
G00 X1.3538  Y0.9795  
G01 Z-0.0070 F10    
G01 X1.3522  Y0.9795  F20    
G01 X1.3522  Y0.9811  
G01 X1.3538  Y0.9795  
G00 Z0.1000  
G00 X1.3345  Y1.0361  
G01 Z-0.0070 F10    
G01 X1.3361  Y1.0345  F20    
G01 X1.3345  Y1.0345  
G01 X1.3345  Y1.0361  
G00 Z0.1000  
G00 X1.2903  Y0.9389  
G01 Z-0.0070 F10    
G01 X1.2887  Y0.9405  F20    
G01 X1.2903  Y0.9405  
G01 X1.2903  Y0.9389  
G00 Z0.1000  
G00 X0.0654  Y0.5761  
G01 Z-0.0070 F10    
G01 X0.0655  Y0.5761  F20    
G00 Z0.1000  
G00 X0.1459  Y0.5110  
G01 Z-0.0070 F10    
G01 X0.1468  Y0.5106  F20    
G01 X0.1459  Y0.5102  
G01 X0.1452  Y0.5095  
G01 X0.1451  Y0.5107  
G01 X0.1451  Y0.5117  
G01 X0.1459  Y0.5110  
G00 Z0.1000  
G00 X0.1707  Y0.4707  
G01 Z-0.0070 F10    
G01 X0.1707  Y0.4691  F20    
G01 X0.1691  Y0.4707  
G01 X0.1707  Y0.4707  
G00 Z0.1000  
G00 X0.2102  Y0.4459  
G01 Z-0.0070 F10    
G01 X0.2106  Y0.4468  F20    
G01 X0.2110  Y0.4459  
G01 X0.2117  Y0.4452  
G01 X0.2106  Y0.4451  
G01 X0.2095  Y0.4451  
G01 X0.2102  Y0.4459  
G00 Z0.1000  
G00 X0.2496  Y0.4459  
G01 Z-0.0070 F10    
G01 X0.2500  Y0.4468  F20    
G01 X0.2504  Y0.4459  
G01 X0.2511  Y0.4452  
G01 X0.2499  Y0.4451  
G01 X0.2489  Y0.4451  
G01 X0.2496  Y0.4459  
G00 Z0.1000  
G00 X0.2299  Y0.4459  
G01 Z-0.0070 F10    
G01 X0.2303  Y0.4468  F20    
G01 X0.2307  Y0.4459  
G01 X0.2314  Y0.4452  
G01 X0.2302  Y0.4451  
G01 X0.2292  Y0.4451  
G01 X0.2299  Y0.4459  
G00 Z0.1000  
G00 X0.1906  Y0.4459  
G01 Z-0.0070 F10    
G01 X0.1909  Y0.4468  F20    
G01 X0.1913  Y0.4459  
G01 X0.1920  Y0.4452  
G01 X0.1909  Y0.4451  
G01 X0.1898  Y0.4451  
G01 X0.1906  Y0.4459  
G00 Z0.1000  
G00 X0.1459  Y0.4913  
G01 Z-0.0070 F10    
G01 X0.1468  Y0.4909  F20    
G01 X0.1459  Y0.4906  
G01 X0.1452  Y0.4899  
G01 X0.1451  Y0.4910  
G01 X0.1451  Y0.4921  
G01 X0.1459  Y0.4913  
G00 Z0.1000  
G00 X0.1459  Y0.5307  
G01 Z-0.0070 F10    
G01 X0.1468  Y0.5303  F20    
G01 X0.1459  Y0.5299  
G01 X0.1452  Y0.5292  
G01 X0.1451  Y0.5304  
G01 X0.1451  Y0.5314  
G01 X0.1459  Y0.5307  
G00 Z0.1000  
G00 X0.8830  Y0.9196  
G01 Z-0.0070 F10    
G01 X0.8844  Y0.9182  F20    
G01 X0.8844  Y0.9182  
G01 X0.8862  Y0.9175  
G01 X0.8879  Y0.9168  
G01 X0.8897  Y0.9168  
G01 X0.8909  Y0.9168  
G01 X0.8892  Y0.9151  
G01 X0.8877  Y0.9116  
G01 X0.8877  Y0.8985  
G01 X0.8853  Y0.8985  
G01 X0.8837  Y0.8978  
G01 X0.8824  Y0.8965  
G01 X0.8822  Y0.8961  
G01 X0.8822  Y0.9204  
G01 X0.8830  Y0.9196  
G00 Z0.1000  
G00 X0.8822  Y0.8419  
G01 Z-0.0070 F10    
G01 X0.8824  Y0.8415  F20    
G01 X0.8822  Y0.8415  
G01 X0.8822  Y0.8419  
G00 Z0.1000  
G00 X0.9382  Y0.8395  
G01 Z-0.0070 F10    
G01 X0.9406  Y0.8395  F20    
G01 X0.9423  Y0.8402  
G01 X0.9436  Y0.8415  
G01 X0.9442  Y0.8431  
G01 X0.9442  Y0.8949  
G01 X0.9436  Y0.8965  
G01 X0.9454  Y0.8965  
G01 X0.9447  Y0.8949  
G01 X0.9447  Y0.8431  
G01 X0.9454  Y0.8415  
G01 X0.9456  Y0.8413  
G01 X0.9452  Y0.8411  
G01 X0.9427  Y0.8401  
G01 X0.9400  Y0.8374  
G01 X0.9387  Y0.8342  
G01 X0.9382  Y0.8351  
G01 X0.9382  Y0.8395  
G00 Z0.1000  
G00 X0.8800  Y0.8085  
G01 Z-0.0070 F10    
G01 X0.8816  Y0.8085  F20    
G01 X0.8816  Y0.8069  
G01 X0.8800  Y0.8085  
G00 Z0.1000  
G00 X0.9080  Y0.9041  
G01 Z-0.0070 F10    
G01 X0.9080  Y0.9041  F20    
G01 X0.9092  Y0.9013  
G01 X0.9095  Y0.9006  
G01 X0.9121  Y0.8980  
G01 X0.9142  Y0.8971  
G01 X0.9144  Y0.8970  
G01 X0.9139  Y0.8965  
G01 X0.9132  Y0.8949  
G01 X0.9132  Y0.8431  
G01 X0.9139  Y0.8415  
G01 X0.9130  Y0.8415  
G01 X0.9121  Y0.8416  
G01 X0.9127  Y0.8431  
G01 X0.9127  Y0.8949  
G01 X0.9121  Y0.8965  
G01 X0.9108  Y0.8978  
G01 X0.9091  Y0.8985  
G01 X0.9067  Y0.8985  
G01 X0.9067  Y0.9058  
G01 X0.9080  Y0.9071  
G01 X0.9080  Y0.9041  
G00 Z0.1000  
G00 X1.0934  Y0.9076  
G01 Z-0.0070 F10    
G01 X1.0826  Y0.9184  F20    
G01 X1.0674  Y0.9184  
G01 X1.0566  Y0.9076  
G01 X1.0566  Y0.8924  
G01 X1.0674  Y0.8816  
G01 X1.0826  Y0.8816  
G01 X1.0838  Y0.8827  
G01 X1.1064  Y0.8676  
G01 X1.1071  Y0.8669  
G01 X1.1080  Y0.8666  
G01 X1.1088  Y0.8660  
G01 X1.1097  Y0.8659  
G01 X1.1106  Y0.8655  
G01 X1.1116  Y0.8655  
G01 X1.1125  Y0.8653  
G01 X1.1134  Y0.8655  
G01 X1.6269  Y0.8655  
G01 X1.6304  Y0.8669  
G01 X1.6315  Y0.8681  
G01 X1.6315  Y0.8670  
G01 X1.6315  Y0.8651  
G01 X1.6322  Y0.8636  
G01 X1.6330  Y0.8616  
G01 X1.6343  Y0.8603  
G01 X1.6351  Y0.8595  
G01 X1.0789  Y0.8595  
G01 X1.0105  Y0.9279  
G01 X1.0135  Y0.9279  
G01 X1.0170  Y0.9294  
G01 X1.0191  Y0.9315  
G01 X1.0191  Y0.9299  
G01 X1.0299  Y0.9191  
G01 X1.0451  Y0.9191  
G01 X1.0559  Y0.9299  
G01 X1.0559  Y0.9405  
G01 X1.1086  Y0.9405  
G01 X1.1571  Y0.8919  
G01 X1.1606  Y0.8905  
G01 X1.4019  Y0.8905  
G01 X1.4054  Y0.8919  
G01 X1.4065  Y0.8931  
G01 X1.4065  Y0.8901  
G01 X1.4080  Y0.8866  
G01 X1.4101  Y0.8845  
G01 X1.1154  Y0.8845  
G01 X1.0934  Y0.8991  
G01 X1.0934  Y0.9076  
G00 Z0.1000  
G00 X2.0403  Y0.9389  
G01 Z-0.0070 F10    
G01 X2.0387  Y0.9405  F20    
G01 X2.0403  Y0.9405  
G01 X2.0403  Y0.9389  
G00 Z0.1000  
G00 X2.0866  Y1.1343  
G01 Z-0.0070 F10    
G01 X2.0892  Y1.1332  F20    
G01 X2.0889  Y1.1329  
G01 X2.0882  Y1.1312  
G01 X2.0882  Y1.1019  
G01 X2.0889  Y1.1002  
G01 X2.0892  Y1.0999  
G01 X2.0866  Y1.0988  
G01 X2.0845  Y1.0967  
G01 X2.0845  Y1.1364  
G01 X2.0866  Y1.1343  
G00 Z0.1000  
G00 X2.0854  Y1.1659  
G01 Z-0.0070 F10    
G01 X2.0867  Y1.1671  F20    
G01 X2.0874  Y1.1688  
G01 X2.0874  Y1.1981  
G01 X2.0867  Y1.1997  
G01 X2.0889  Y1.1997  
G01 X2.0882  Y1.1981  
G01 X2.0882  Y1.1688  
G01 X2.0889  Y1.1671  
G01 X2.0892  Y1.1668  
G01 X2.0866  Y1.1657  
G01 X2.0845  Y1.1636  
G01 X2.0845  Y1.1655  
G01 X2.0854  Y1.1659  
G00 Z0.1000  
G00 X2.0589  Y1.0986  
G01 Z-0.0070 F10    
G01 X2.0598  Y1.0989  F20    
G01 X2.0611  Y1.1002  
G01 X2.0618  Y1.1019  
G01 X2.0618  Y1.1312  
G01 X2.0611  Y1.1329  
G01 X2.0608  Y1.1332  
G01 X2.0634  Y1.1343  
G01 X2.0655  Y1.1364  
G01 X2.0655  Y1.0231  
G01 X2.0669  Y1.0196  
G01 X2.0832  Y1.0033  
G01 X2.0832  Y0.9795  
G01 X2.0793  Y0.9795  
G01 X2.0777  Y0.9788  
G01 X2.0764  Y0.9775  
G01 X2.0757  Y0.9759  
G01 X2.0757  Y0.9241  
G01 X2.0763  Y0.9227  
G01 X2.0750  Y0.9227  
G01 X2.0737  Y0.9227  
G01 X2.0743  Y0.9241  
G01 X2.0743  Y0.9759  
G01 X2.0736  Y0.9775  
G01 X2.0723  Y0.9788  
G01 X2.0707  Y0.9795  
G01 X2.0439  Y0.9795  
G01 X2.0422  Y0.9788  
G01 X2.0410  Y0.9775  
G01 X2.0403  Y0.9759  
G01 X2.0403  Y0.9595  
G01 X1.9729  Y0.9595  
G01 X2.0575  Y1.0440  
G01 X2.0589  Y1.0475  
G01 X2.0589  Y1.0513  
G01 X2.0589  Y1.0986  
G00 Z0.1000  
G00 X2.1085  Y1.0155  
G01 Z-0.0070 F10    
G01 X2.1108  Y1.0131  F20    
G01 X2.1078  Y1.0131  
G01 X2.1043  Y1.0117  
G01 X2.1021  Y1.0095  
G01 X2.1008  Y1.0127  
G01 X2.0979  Y1.0155  
G01 X2.1085  Y1.0155  
G00 Z0.1000  
G00 X2.1038  Y0.9795  
G01 Z-0.0070 F10    
G01 X2.1022  Y0.9795  F20    
G01 X2.1022  Y0.9811  
G01 X2.1038  Y0.9795  
G00 Z0.1000  
G00 X2.0845  Y1.0361  
G01 Z-0.0070 F10    
G01 X2.0861  Y1.0345  F20    
G01 X2.0845  Y1.0345  
G01 X2.0845  Y1.0361  
G00 Z0.1000  
G00 X0.5292  Y0.3325  
G01 Z-0.0070 F10    
G01 X0.5280  Y0.3325  F20    
G01 X0.5280  Y0.3459  
G01 X0.5266  Y0.3494  
G01 X0.5239  Y0.3520  
G01 X0.4980  Y0.3779  
G01 X0.5010  Y0.3779  
G01 X0.5045  Y0.3794  
G01 X0.5066  Y0.3815  
G01 X0.5066  Y0.3799  
G01 X0.5174  Y0.3691  
G01 X0.5300  Y0.3691  
G01 X0.5405  Y0.3586  
G01 X0.5405  Y0.3325  
G01 X0.5393  Y0.3325  
G01 X0.5376  Y0.3318  
G01 X0.5363  Y0.3305  
G01 X0.5357  Y0.3288  
G01 X0.5357  Y0.2483  
G01 X0.5363  Y0.2467  
G01 X0.5376  Y0.2454  
G01 X0.5393  Y0.2447  
G01 X0.5607  Y0.2447  
G01 X0.5624  Y0.2454  
G01 X0.5637  Y0.2467  
G01 X0.5643  Y0.2483  
G01 X0.5643  Y0.3288  
G01 X0.5637  Y0.3305  
G01 X0.5627  Y0.3314  
G01 X0.5651  Y0.3305  
G01 X0.5678  Y0.3305  
G01 X0.5672  Y0.3288  
G01 X0.5672  Y0.2483  
G01 X0.5678  Y0.2467  
G01 X0.5691  Y0.2454  
G01 X0.5708  Y0.2447  
G01 X0.5922  Y0.2447  
G01 X0.5939  Y0.2454  
G01 X0.5952  Y0.2467  
G01 X0.5955  Y0.2476  
G01 X0.5980  Y0.2452  
G01 X0.6014  Y0.2437  
G01 X0.6183  Y0.2437  
G01 X0.6183  Y0.1854  
G01 X0.6198  Y0.1819  
G01 X0.6225  Y0.1792  
G01 X0.6259  Y0.1778  
G01 X0.6971  Y0.1778  
G01 X0.6971  Y0.1235  
G01 X0.6985  Y0.1200  
G01 X0.7006  Y0.1179  
G01 X0.6652  Y0.1179  
G01 X0.6636  Y0.1172  
G01 X0.6623  Y0.1159  
G01 X0.6616  Y0.1143  
G01 X0.6616  Y0.0259  
G01 X0.6623  Y0.0242  
G01 X0.6636  Y0.0230  
G01 X0.6652  Y0.0223  
G01 X0.7637  Y0.0223  
G01 X0.7629  Y0.0204  
G01 X0.7623  Y0.0189  
G01 X0.7623  Y0.0151  
G01 X0.7637  Y0.0116  
G01 X0.7663  Y0.0090  
G01 X0.7684  Y0.0081  
G01 X0.7699  Y0.0075  
G01 X2.4506  Y0.0075  
G01 X2.4511  Y0.0073  
G01 X2.4525  Y0.0075  
G01 X2.4538  Y0.0075  
G01 X2.4543  Y0.0077  
G01 X2.4549  Y0.0078  
G01 X2.4560  Y0.0084  
G01 X2.4573  Y0.0089  
G01 X2.4577  Y0.0093  
G01 X2.4582  Y0.0096  
G01 X2.4590  Y0.0107  
G01 X2.4600  Y0.0116  
G01 X2.4602  Y0.0121  
G01 X2.4605  Y0.0126  
G01 X2.4609  Y0.0139  
G01 X2.4614  Y0.0151  
G01 X2.4614  Y0.0157  
G01 X2.4616  Y0.0162  
